;FLAVOR:UltiGCode
;TIME:3798
;MATERIAL:1131
;MATERIAL2:0
;NOZZLE_DIAMETER:0.25
;Generated with Cura_SteamEngine 2.5.0

;LAYER_COUNT:15
;LAYER:0
M107
G0 F3600 X106.358 Y16.144 Z0.17
G0 X106.299 Y16.639
;TYPE:SKIRT
G1 F1800 X106.358 Y16.144 E0.01864
G1 X106.496 Y15.665 E0.03729
G1 X106.708 Y15.214 E0.05593
G1 X106.989 Y14.803 E0.07455
G1 X107.333 Y14.442 E0.0932
G1 X107.73 Y14.14 E0.11185
G1 X108.17 Y13.906 E0.13049
G1 X108.641 Y13.745 E0.14911
G1 X109.133 Y13.661 E0.16777
G1 X109.408 Y13.649 E0.17807
G1 X112.56 Y13.65 E0.29595
G1 X113.057 Y13.69 E0.3146
G1 X113.599 Y13.829 E0.33553
G1 X114.63 Y14.195 E0.37644
G1 X115.085 Y14.399 E0.39509
G1 X115.502 Y14.673 E0.41375
G1 X115.869 Y15.01 E0.43239
G1 X116.178 Y15.401 E0.45103
G1 X116.42 Y15.836 E0.46964
G1 X116.59 Y16.305 E0.4883
G1 X116.699 Y17.038 E0.51602
G1 X116.799 Y20.585 E0.64873
G1 X117.204 Y26.074 E0.85458
G1 X117.915 Y31.512 E1.05969
G1 X118.935 Y36.909 E1.26511
G1 X119.543 Y39.521 E1.36541
G1 X121.025 Y44.84 E1.57192
G1 X122.786 Y50.013 E1.77629
G1 X124.854 Y55.12 E1.98236
G1 X127.181 Y60.046 E2.18611
G1 X131.204 Y67.237 E2.49428
G1 X131.412 Y67.69 E2.51292
G1 X131.545 Y68.17 E2.53155
G1 X131.6 Y68.755 E2.55353
G1 X131.6 Y206.241 E7.6955
G1 X131.56 Y206.738 E7.71415
G1 X131.441 Y207.222 E7.73279
G1 X131.247 Y207.681 E7.75143
G1 X130.981 Y208.103 E7.77009
G1 X130.652 Y208.477 E7.78872
G1 X130.267 Y208.793 E7.80734
G1 X129.837 Y209.044 E7.82597
G1 X129.371 Y209.223 E7.84464
G1 X128.884 Y209.326 E7.86325
G1 X128.49 Y209.351 E7.87802
G1 X94.509 Y209.351 E9.14891
G1 X94.012 Y209.311 E9.16755
G1 X93.528 Y209.192 E9.1862
G1 X93.069 Y208.998 E9.20483
G1 X92.647 Y208.732 E9.22349
G1 X92.273 Y208.403 E9.24212
G1 X91.957 Y208.018 E9.26075
G1 X91.706 Y207.588 E9.27937
G1 X91.527 Y207.122 E9.29804
G1 X91.424 Y206.635 E9.31665
G1 X91.399 Y206.241 E9.33142
G1 X91.4 Y68.753 E14.47347
G1 X91.44 Y68.256 E14.49212
G1 X91.559 Y67.772 E14.51076
G1 X91.817 Y67.198 E14.5343
G1 X94.663 Y62.271 E14.7471
G1 X97.133 Y57.365 E14.95253
G1 X99.31 Y52.361 E15.15662
G1 X101.218 Y47.19 E15.36276
G1 X102.819 Y41.955 E15.5675
G1 X104.131 Y36.606 E15.77348
G1 X104.656 Y33.978 E15.87371
G1 X105.509 Y28.531 E16.07991
G1 X106.05 Y23.09 E16.28441
G1 X106.299 Y16.639 E16.52586
G10
G0 F3600 X108.856 Y17.094
G0 X109.74 Y17.094
G0 X111.815 Y17.587
;TYPE:WALL-INNER
G11
G1 F1800 X111.815 Y19.371 E16.59258
G1 X111.939 Y19.416 E16.59751
G1 X112.222 Y19.519 E16.60877
G1 X111.939 Y19.622 E16.61474
G1 X111.815 Y19.667 E16.61968
G1 X111.815 Y21.451 E16.6864
G1 X111.939 Y21.496 E16.69133
G1 X112.222 Y21.599 E16.7026
G1 X111.939 Y21.702 E16.70856
G1 X111.815 Y21.747 E16.7135
G1 X111.815 Y23.53 E16.78018
G1 X111.94 Y23.576 E16.78516
G1 X111.941 Y23.577 E16.78522
G1 X112.223 Y23.679 E16.79643
G1 X111.94 Y23.781 E16.80238
G1 X111.815 Y23.827 E16.80737
G1 X111.815 Y25.61 E16.87405
G1 X111.94 Y25.656 E16.87903
G1 X111.941 Y25.657 E16.87908
G1 X112.223 Y25.759 E16.8903
G1 X111.94 Y25.861 E16.89625
G1 X111.815 Y25.907 E16.90124
G1 X111.815 Y27.691 E16.96796
G1 X111.939 Y27.736 E16.97289
G1 X112.222 Y27.839 E16.98415
G1 X111.939 Y27.942 E16.99012
G1 X111.815 Y27.987 E16.99506
G1 X111.815 Y29.771 E17.06178
G1 X111.939 Y29.816 E17.06671
G1 X112.222 Y29.919 E17.07797
G1 X111.939 Y30.022 E17.08394
G1 X111.815 Y30.067 E17.08888
G1 X111.815 Y31.85 E17.15556
G1 X111.94 Y31.896 E17.16054
G1 X111.941 Y31.897 E17.1606
G1 X112.223 Y31.999 E17.17181
G1 X111.94 Y32.101 E17.17776
G1 X111.815 Y32.147 E17.18275
G1 X111.815 Y33.93 E17.24943
G1 X111.94 Y33.976 E17.25441
G1 X111.941 Y33.977 E17.25446
G1 X112.223 Y34.079 E17.26568
G1 X111.94 Y34.181 E17.27163
G1 X111.815 Y34.227 E17.27661
G1 X111.815 Y36.011 E17.34334
G1 X111.939 Y36.056 E17.34827
G1 X112.222 Y36.159 E17.35953
G1 X111.939 Y36.262 E17.3655
G1 X111.815 Y36.307 E17.37044
G1 X111.815 Y38.091 E17.43716
G1 X111.939 Y38.136 E17.44209
G1 X112.222 Y38.239 E17.45335
G1 X111.939 Y38.342 E17.45932
G1 X111.815 Y38.387 E17.46426
G1 X111.815 Y40.17 E17.53094
G1 X111.94 Y40.216 E17.53592
G1 X111.941 Y40.217 E17.53597
G1 X112.223 Y40.319 E17.54719
G1 X111.94 Y40.421 E17.55314
G1 X111.815 Y40.467 E17.55813
G1 X111.815 Y42.25 E17.62481
G1 X111.94 Y42.296 E17.62979
G1 X111.941 Y42.297 E17.62984
G1 X112.223 Y42.399 E17.64106
G1 X111.94 Y42.501 E17.64701
G1 X111.815 Y42.547 E17.65199
G1 X111.815 Y44.331 E17.71872
G1 X111.939 Y44.376 E17.72365
G1 X112.222 Y44.479 E17.73491
G1 X111.939 Y44.582 E17.74088
G1 X111.815 Y44.627 E17.74581
G1 X111.815 Y46.411 E17.81254
G1 X111.939 Y46.456 E17.81747
G1 X112.222 Y46.559 E17.82873
G1 X111.939 Y46.662 E17.8347
G1 X111.815 Y46.707 E17.83964
G1 X111.815 Y48.49 E17.90632
G1 X111.94 Y48.536 E17.9113
G1 X111.941 Y48.537 E17.91135
G1 X112.223 Y48.639 E17.92257
G1 X111.94 Y48.741 E17.92852
G1 X111.815 Y48.787 E17.9335
G1 X111.815 Y50.57 E18.00019
G1 X111.94 Y50.616 E18.00517
G1 X111.941 Y50.617 E18.00522
G1 X112.223 Y50.719 E18.01644
G1 X111.94 Y50.821 E18.02239
G1 X111.815 Y50.867 E18.02737
G1 X111.815 Y52.651 E18.0941
G1 X111.939 Y52.696 E18.09903
G1 X112.222 Y52.799 E18.11029
G1 X111.939 Y52.902 E18.11626
G1 X111.815 Y52.947 E18.12119
G1 X111.815 Y54.731 E18.18792
G1 X111.939 Y54.776 E18.19285
G1 X112.222 Y54.879 E18.20411
G1 X111.939 Y54.982 E18.21008
G1 X111.815 Y55.027 E18.21501
G1 X111.815 Y56.811 E18.28174
G1 X111.939 Y56.856 E18.28667
G1 X112.222 Y56.959 E18.29793
G1 X111.939 Y57.062 E18.3039
G1 X111.815 Y57.107 E18.30884
G1 X111.815 Y58.891 E18.37556
G1 X111.939 Y58.936 E18.38049
G1 X112.222 Y59.039 E18.39175
G1 X111.939 Y59.142 E18.39772
G1 X111.815 Y59.187 E18.40266
G1 X111.815 Y60.97 E18.46934
G1 X111.94 Y61.016 E18.47432
G1 X111.941 Y61.017 E18.47437
G1 X112.223 Y61.119 E18.48559
G1 X111.94 Y61.221 E18.49154
G1 X111.815 Y61.267 E18.49653
G1 X111.815 Y63.05 E18.56321
G1 X111.94 Y63.096 E18.56819
G1 X112.223 Y63.198 E18.57944
G1 X111.941 Y63.3 E18.58536
G1 X111.94 Y63.301 E18.58541
G1 X111.815 Y63.347 E18.59039
G1 X111.815 Y65.13 E18.65708
G1 X111.94 Y65.176 E18.66206
G1 X111.941 Y65.177 E18.66211
G1 X112.223 Y65.279 E18.67333
G1 X111.94 Y65.381 E18.67928
G1 X111.815 Y65.427 E18.68426
G1 X111.815 Y67.21 E18.75095
G1 X111.94 Y67.256 E18.75593
G1 X111.941 Y67.257 E18.75598
G1 X112.223 Y67.359 E18.7672
G1 X111.94 Y67.461 E18.77315
G1 X111.815 Y67.507 E18.77813
G1 X111.815 Y69.52 E18.85342
G1 X127.73 Y69.52 E19.44864
G1 X127.73 Y205.48 E24.53354
G1 X95.27 Y205.48 E25.74755
G1 X95.27 Y69.52 E30.83245
G1 X110.166 Y69.52 E31.38956
G1 X110.166 Y17.52 E33.33436
G1 X111.815 Y17.52 E33.39603
G1 X111.999 Y17.52 E33.40292
G1 X111.815 Y17.587
G0 F3600 X109.754 Y69.108
G0 X94.858 Y69.108
G0 X94.858 Y205.892
G0 X128.142 Y205.892
G0 X126.77 Y71.73
G1 F1800 X96.23 Y71.73 E34.54511
G1 X96.23 Y203.27 E39.46471
G1 X126.77 Y203.27 E40.6069
G1 X126.77 Y71.73 E45.5265
G0 F3600 X126.55 Y71.95
G1 F1800 X96.45 Y71.95 E46.65224
G1 X96.45 Y203.05 E51.55538
G1 X126.55 Y203.05 E52.68112
G1 X126.55 Y71.95 E57.58426
G0 F3600 X127.95 Y69.3
G1 F1800 X127.95 Y205.7 E62.68562
G1 X95.05 Y205.7 E63.91608
G1 X95.05 Y69.3 E69.01744
G1 X109.946 Y69.3 E69.57455
G1 X109.946 Y17.3 E71.51935
G1 X112.488 Y17.3 E71.61442
G1 X112.584 Y17.335 E71.61824
G1 X112.585 Y17.336 E71.61829
G1 X112.868 Y17.438 E71.62955
G1 X112.585 Y17.541 E71.63551
G1 X112.035 Y17.741 E71.6574
G1 X112.035 Y19.217 E71.7126
G1 X112.583 Y19.416 E71.73441
G1 X112.867 Y19.519 E71.74571
G1 X112.583 Y19.622 E71.75169
G1 X112.035 Y19.821 E71.7735
G1 X112.035 Y21.297 E71.8287
G1 X112.583 Y21.496 E71.85051
G1 X112.867 Y21.599 E71.8618
G1 X112.583 Y21.702 E71.86779
G1 X112.035 Y21.901 E71.88959
G1 X112.035 Y23.376 E71.94476
G1 X112.584 Y23.576 E71.96661
G1 X112.867 Y23.679 E71.97788
G1 X112.584 Y23.782 E71.98384
G1 X112.035 Y23.981 E72.00568
G1 X112.035 Y25.456 E72.06085
G1 X112.584 Y25.656 E72.0827
G1 X112.867 Y25.759 E72.09397
G1 X112.584 Y25.862 E72.09993
G1 X112.035 Y26.061 E72.12177
G1 X112.035 Y27.537 E72.17698
G1 X112.583 Y27.736 E72.19878
G1 X112.867 Y27.839 E72.21008
G1 X112.583 Y27.942 E72.21607
G1 X112.035 Y28.141 E72.23787
G1 X112.035 Y29.617 E72.29307
G1 X112.583 Y29.816 E72.31488
G1 X112.867 Y29.919 E72.32618
G1 X112.583 Y30.022 E72.33216
G1 X112.035 Y30.221 E72.35397
G1 X112.035 Y31.696 E72.40913
G1 X112.584 Y31.896 E72.43098
G1 X112.867 Y31.999 E72.44225
G1 X112.584 Y32.102 E72.44822
G1 X112.035 Y32.301 E72.47006
G1 X112.035 Y33.776 E72.52522
G1 X112.584 Y33.976 E72.54707
G1 X112.867 Y34.079 E72.55834
G1 X112.584 Y34.182 E72.56431
G1 X112.035 Y34.381 E72.58615
G1 X112.035 Y35.857 E72.64135
G1 X112.583 Y36.056 E72.66315
G1 X112.867 Y36.159 E72.67445
G1 X112.583 Y36.262 E72.68044
G1 X112.035 Y36.461 E72.70224
G1 X112.035 Y37.937 E72.75744
G1 X112.583 Y38.136 E72.77925
G1 X112.867 Y38.239 E72.79055
G1 X112.583 Y38.342 E72.79653
G1 X112.035 Y38.541 E72.81834
G1 X112.035 Y40.016 E72.8735
G1 X112.584 Y40.216 E72.89536
G1 X112.867 Y40.319 E72.90662
G1 X112.584 Y40.422 E72.91259
G1 X112.035 Y40.621 E72.93443
G1 X112.035 Y42.096 E72.98959
G1 X112.584 Y42.296 E73.01144
G1 X112.867 Y42.399 E73.02271
G1 X112.584 Y42.502 E73.02868
G1 X112.035 Y42.701 E73.05052
G1 X112.035 Y44.177 E73.10572
G1 X112.583 Y44.376 E73.12752
G1 X112.867 Y44.479 E73.13882
G1 X112.583 Y44.582 E73.14481
G1 X112.035 Y44.781 E73.16661
G1 X112.035 Y46.257 E73.22182
G1 X112.583 Y46.456 E73.24362
G1 X112.867 Y46.559 E73.25492
G1 X112.583 Y46.662 E73.2609
G1 X112.035 Y46.861 E73.28271
G1 X112.035 Y48.336 E73.33787
G1 X112.584 Y48.536 E73.35973
G1 X112.867 Y48.639 E73.37099
G1 X112.584 Y48.742 E73.37696
G1 X112.035 Y48.941 E73.3988
G1 X112.035 Y50.416 E73.45396
G1 X112.584 Y50.616 E73.47582
G1 X112.867 Y50.719 E73.48708
G1 X112.584 Y50.822 E73.49305
G1 X112.035 Y51.021 E73.51489
G1 X112.035 Y52.497 E73.57009
G1 X112.583 Y52.696 E73.5919
G1 X112.867 Y52.799 E73.60319
G1 X112.583 Y52.902 E73.60918
G1 X112.035 Y53.101 E73.63098
G1 X112.035 Y54.577 E73.68619
G1 X112.583 Y54.776 E73.70799
G1 X112.867 Y54.879 E73.71929
G1 X112.583 Y54.982 E73.72528
G1 X112.035 Y55.181 E73.74708
G1 X112.035 Y56.657 E73.80228
G1 X112.583 Y56.856 E73.82409
G1 X112.867 Y56.959 E73.83539
G1 X112.583 Y57.062 E73.84137
G1 X112.035 Y57.261 E73.86318
G1 X112.035 Y58.737 E73.91838
G1 X112.583 Y58.936 E73.94018
G1 X112.867 Y59.039 E73.95148
G1 X112.583 Y59.142 E73.95747
G1 X112.035 Y59.341 E73.97927
G1 X112.035 Y60.816 E74.03444
G1 X112.584 Y61.016 E74.05629
G1 X112.867 Y61.119 E74.06756
G1 X112.584 Y61.222 E74.07352
G1 X112.035 Y61.421 E74.09536
G1 X112.035 Y62.896 E74.15053
G1 X112.584 Y63.095 E74.17237
G1 X112.867 Y63.198 E74.18363
G1 X112.584 Y63.301 E74.1896
G1 X112.035 Y63.501 E74.21145
G1 X112.035 Y64.976 E74.26662
G1 X112.584 Y65.176 E74.28847
G1 X112.867 Y65.279 E74.29973
G1 X112.584 Y65.382 E74.3057
G1 X112.035 Y65.581 E74.32754
G1 X112.035 Y67.056 E74.38271
G1 X112.584 Y67.256 E74.40456
G1 X112.867 Y67.359 E74.41582
G1 X112.584 Y67.462 E74.42179
G1 X112.035 Y67.661 E74.44363
G1 X112.035 Y69.3 E74.50493
G1 X127.95 Y69.3 E75.10015
G0 F3600 X128.17 Y69.08
G1 F1800 X128.17 Y205.92 E80.21797
G1 X94.83 Y205.92 E81.46488
G1 X94.83 Y69.08 E86.5827
G1 X109.726 Y69.08 E87.13981
G1 X109.726 Y17.08 E89.08461
G1 X112.527 Y17.08 E89.18937
G1 X113.214 Y17.331 E89.21672
G1 X113.274 Y17.352 E89.2191
G1 X113.274 Y17.525 E89.22557
G1 X113.214 Y17.546 E89.22795
G1 X112.255 Y17.895 E89.26612
G1 X112.255 Y19.063 E89.3098
G1 X113.214 Y19.411 E89.34795
G1 X113.274 Y19.432 E89.35033
G1 X113.274 Y19.605 E89.3568
G1 X113.214 Y19.626 E89.35918
G1 X112.255 Y19.975 E89.39735
G1 X112.255 Y21.143 E89.44103
G1 X113.214 Y21.491 E89.47918
G1 X113.274 Y21.512 E89.48156
G1 X113.274 Y21.685 E89.48803
G1 X113.214 Y21.706 E89.49041
G1 X112.255 Y22.055 E89.52858
G1 X112.255 Y23.222 E89.57222
G1 X113.214 Y23.571 E89.61039
G1 X113.274 Y23.592 E89.61277
G1 X113.274 Y23.765 E89.61924
G1 X113.214 Y23.786 E89.62162
G1 X112.255 Y24.135 E89.65978
G1 X112.255 Y25.302 E89.70343
G1 X113.214 Y25.651 E89.7416
G1 X113.274 Y25.672 E89.74398
G1 X113.274 Y25.845 E89.75045
G1 X113.214 Y25.866 E89.75282
G1 X112.255 Y26.215 E89.79099
G1 X112.255 Y27.383 E89.83467
G1 X113.214 Y27.731 E89.87283
G1 X113.274 Y27.752 E89.87521
G1 X113.274 Y27.925 E89.88168
G1 X113.214 Y27.946 E89.88405
G1 X112.255 Y28.295 E89.92222
G1 X112.255 Y29.463 E89.96591
G1 X113.214 Y29.811 E90.00406
G1 X113.274 Y29.832 E90.00644
G1 X113.274 Y30.005 E90.01291
G1 X113.214 Y30.026 E90.01529
G1 X112.255 Y30.375 E90.05345
G1 X112.255 Y31.542 E90.0971
G1 X113.214 Y31.891 E90.13527
G1 X113.274 Y31.912 E90.13764
G1 X113.274 Y32.085 E90.14411
G1 X113.214 Y32.106 E90.14649
G1 X112.255 Y32.455 E90.18466
G1 X112.255 Y33.622 E90.22831
G1 X113.214 Y33.971 E90.26647
G1 X113.274 Y33.992 E90.26885
G1 X113.274 Y34.165 E90.27532
G1 X113.214 Y34.186 E90.2777
G1 X112.255 Y34.535 E90.31587
G1 X112.255 Y35.703 E90.35955
G1 X113.214 Y36.051 E90.3977
G1 X113.274 Y36.072 E90.40008
G1 X113.274 Y36.245 E90.40655
G1 X113.214 Y36.266 E90.40893
G1 X112.255 Y36.615 E90.4471
G1 X112.255 Y37.783 E90.49078
G1 X113.214 Y38.131 E90.52894
G1 X113.274 Y38.152 E90.53131
G1 X113.274 Y38.325 E90.53778
G1 X113.214 Y38.346 E90.54016
G1 X112.255 Y38.695 E90.57833
G1 X112.255 Y39.862 E90.62197
G1 X113.214 Y40.211 E90.66014
G1 X113.274 Y40.232 E90.66252
G1 X113.274 Y40.405 E90.66899
G1 X113.214 Y40.426 E90.67137
G1 X112.255 Y40.775 E90.70954
G1 X112.255 Y41.942 E90.75318
G1 X113.214 Y42.291 E90.79135
G1 X113.274 Y42.312 E90.79373
G1 X113.274 Y42.485 E90.8002
G1 X113.214 Y42.506 E90.80257
G1 X112.255 Y42.855 E90.84074
G1 X112.255 Y44.023 E90.88443
G1 X113.214 Y44.371 E90.92258
G1 X113.274 Y44.392 E90.92496
G1 X113.274 Y44.565 E90.93143
G1 X113.214 Y44.586 E90.93381
G1 X112.255 Y44.935 E90.97197
G1 X112.255 Y46.103 E91.01566
G1 X113.214 Y46.451 E91.05381
G1 X113.274 Y46.472 E91.05619
G1 X113.274 Y46.645 E91.06266
G1 X113.214 Y46.666 E91.06504
G1 X112.255 Y47.015 E91.1032
G1 X112.255 Y48.182 E91.14685
G1 X113.214 Y48.531 E91.18502
G1 X113.274 Y48.552 E91.1874
G1 X113.274 Y48.725 E91.19387
G1 X113.214 Y48.746 E91.19624
G1 X112.255 Y49.095 E91.23441
G1 X112.255 Y50.262 E91.27806
G1 X113.214 Y50.611 E91.31622
G1 X113.274 Y50.632 E91.3186
G1 X113.274 Y50.805 E91.32507
G1 X113.214 Y50.826 E91.32745
G1 X112.255 Y51.175 E91.36562
G1 X112.255 Y52.343 E91.4093
G1 X113.214 Y52.691 E91.44746
G1 X113.274 Y52.712 E91.44983
G1 X113.274 Y52.885 E91.4563
G1 X113.214 Y52.906 E91.45868
G1 X112.255 Y53.255 E91.49685
G1 X112.255 Y54.423 E91.54053
G1 X113.214 Y54.771 E91.57869
G1 X113.274 Y54.792 E91.58106
G1 X113.274 Y54.965 E91.58754
G1 X113.214 Y54.986 E91.58991
G1 X112.255 Y55.335 E91.62808
G1 X112.255 Y56.503 E91.67176
G1 X113.214 Y56.851 E91.70992
G1 X113.274 Y56.872 E91.7123
G1 X113.274 Y57.045 E91.71877
G1 X113.214 Y57.066 E91.72114
G1 X112.255 Y57.415 E91.75931
G1 X112.255 Y58.583 E91.80299
G1 X113.214 Y58.931 E91.84115
G1 X113.274 Y58.952 E91.84353
G1 X113.274 Y59.125 E91.85
G1 X113.214 Y59.146 E91.85238
G1 X112.255 Y59.495 E91.89054
G1 X112.255 Y60.662 E91.93419
G1 X113.214 Y61.011 E91.97236
G1 X113.274 Y61.032 E91.97473
G1 X113.274 Y61.205 E91.9812
G1 X113.214 Y61.226 E91.98358
G1 X112.255 Y61.575 E92.02175
G1 X112.255 Y62.742 E92.0654
G1 X113.214 Y63.091 E92.10356
G1 X113.274 Y63.112 E92.10594
G1 X113.274 Y63.285 E92.11241
G1 X113.214 Y63.306 E92.11479
G1 X112.255 Y63.655 E92.15296
G1 X112.255 Y64.822 E92.1966
G1 X113.214 Y65.171 E92.23477
G1 X113.274 Y65.192 E92.23715
G1 X113.274 Y65.365 E92.24362
G1 X113.214 Y65.386 E92.24599
G1 X112.255 Y65.735 E92.28416
G1 X112.255 Y66.902 E92.32781
G1 X113.214 Y67.251 E92.36598
G1 X113.274 Y67.272 E92.36835
G1 X113.274 Y67.445 E92.37482
G1 X113.214 Y67.466 E92.3772
G1 X112.255 Y67.815 E92.41537
G1 X112.255 Y69.08 E92.46268
G1 X128.17 Y69.08 E93.0579
G0 F3600 X128.1 Y69.15
G0 X126.4 Y72.1
G0 X126.33 Y72.17
G1 F1800 X96.67 Y72.17 E94.16719
G1 X96.67 Y202.83 E99.05387
G1 X126.33 Y202.83 E100.16315
G1 X126.33 Y72.17 E105.04984
G0 F3600 X126.125 Y72.375
;TYPE:WALL-OUTER
G1 F1800 X96.875 Y72.375 E106.14379
G1 X96.875 Y202.625 E111.01514
G1 X126.125 Y202.625 E112.10909
G1 X126.125 Y72.375 E116.98044
G0 F3600 X126 Y72.375
G0 X126 Y72.07
G0 X128.1 Y69.15
G0 X128.375 Y68.875
