;FLAVOR:UltiGCode
;TIME:3334
;MATERIAL:994
;MATERIAL2:0
;NOZZLE_DIAMETER:0.25
;Generated with Cura_SteamEngine 2.5.0

;LAYER_COUNT:32
;LAYER:0
M107
G0 F3600 X96.349 Y96.97 Z0.17
;TYPE:SKIRT
G1 F1800 X97.611 Y95.757 E0.06547
G1 X97.835 Y95.561 E0.0766
G1 X98.899 Y94.707 E0.12762
G1 X99.132 Y94.536 E0.13843
G1 X100.548 Y93.589 E0.20214
G1 X100.872 Y93.398 E0.21621
G1 X102.891 Y92.356 E0.30118
G1 X103.275 Y92.187 E0.31688
G1 X105.325 Y91.438 E0.3985
G1 X105.622 Y91.345 E0.41014
G1 X106.779 Y91.041 E0.45488
G1 X107.146 Y90.967 E0.46888
G1 X109.825 Y90.578 E0.57013
G1 X110.263 Y90.543 E0.58656
G1 X112.269 Y90.518 E0.66159
G1 X112.65 Y90.535 E0.67586
G1 X114.607 Y90.736 E0.74943
G1 X114.934 Y90.787 E0.76181
G1 X116.45 Y91.097 E0.81968
G1 X116.729 Y91.166 E0.83043
G1 X118.228 Y91.61 E0.8889
G1 X118.527 Y91.714 E0.90074
G1 X120.11 Y92.352 E0.96457
G1 X120.415 Y92.494 E0.97716
G1 X122.138 Y93.4 E1.04996
G1 X122.498 Y93.619 E1.06572
G1 X124.537 Y95.047 E1.15882
G1 X124.849 Y95.294 E1.17371
G1 X126.123 Y96.435 E1.23767
G1 X126.342 Y96.65 E1.24915
G1 X127.429 Y97.821 E1.3089
G1 X127.642 Y98.076 E1.32133
G1 X128.756 Y99.546 E1.39031
G1 X128.934 Y99.805 E1.40206
G1 X129.759 Y101.138 E1.46069
G1 X129.947 Y101.487 E1.47552
G1 X131.071 Y103.907 E1.57531
G1 X131.241 Y104.353 E1.59317
G1 X131.911 Y106.587 E1.68039
G1 X132.012 Y107.036 E1.69761
G1 X132.393 Y109.505 E1.79104
G1 X132.431 Y109.917 E1.80651
G1 X132.49 Y111.971 E1.88336
G1 X132.482 Y112.318 E1.89635
G1 X132.37 Y113.798 E1.95186
G1 X132.318 Y114.183 E1.96639
G1 X131.805 Y116.818 E2.06679
G1 X131.719 Y117.161 E2.08001
G1 X131.383 Y118.253 E2.12274
G1 X131.289 Y118.517 E2.13322
G1 X130.657 Y120.088 E2.19655
G1 X130.516 Y120.394 E2.20915
G1 X129.587 Y122.162 E2.28385
G1 X129.424 Y122.438 E2.29584
G1 X128.703 Y123.538 E2.34503
G1 X128.497 Y123.82 E2.35809
G1 X126.974 Y125.684 E2.44811
G1 X126.758 Y125.923 E2.46016
G1 X126.04 Y126.646 E2.49827
G1 X125.837 Y126.834 E2.50862
G1 X124.399 Y128.06 E2.57929
G1 X124.136 Y128.263 E2.59172
G1 X122.778 Y129.204 E2.65351
G1 X122.485 Y129.385 E2.66639
G1 X120.699 Y130.367 E2.74262
G1 X120.443 Y130.494 E2.7533
G1 X119.449 Y130.934 E2.79396
G1 X119.058 Y131.079 E2.80956
G1 X115.948 Y132.012 E2.93099
G1 X115.43 Y132.123 E2.9508
G1 X113.135 Y132.428 E3.03739
G1 X112.737 Y132.457 E3.05232
G1 X110.731 Y132.482 E3.12735
G1 X110.35 Y132.465 E3.14161
G1 X108.394 Y132.264 E3.21515
G1 X108.066 Y132.213 E3.22757
G1 X106.551 Y131.903 E3.2854
G1 X106.217 Y131.817 E3.2983
G1 X104.137 Y131.161 E3.37987
G1 X103.834 Y131.048 E3.39196
G1 X102.778 Y130.598 E3.43489
G1 X102.526 Y130.479 E3.44532
G1 X100.824 Y129.579 E3.51732
G1 X100.469 Y129.361 E3.5329
G1 X98.477 Y127.964 E3.6239
G1 X98.17 Y127.721 E3.63854
G1 X96.884 Y126.572 E3.70304
G1 X96.659 Y126.351 E3.71484
G1 X95.55 Y125.153 E3.77589
G1 X95.338 Y124.9 E3.78824
G1 X94.233 Y123.439 E3.85675
G1 X94.056 Y123.18 E3.86848
G1 X93.237 Y121.854 E3.92677
G1 X93.087 Y121.583 E3.93835
G1 X92.326 Y120.048 E4.00243
G1 X92.163 Y119.66 E4.01817
G1 X91.26 Y117.056 E4.12125
G1 X91.139 Y116.608 E4.1386
G1 X90.721 Y114.483 E4.2196
G1 X90.671 Y114.132 E4.23286
G1 X90.53 Y112.529 E4.29304
G1 X90.518 Y112.153 E4.30711
G1 X90.578 Y109.767 E4.39638
G1 X90.619 Y109.327 E4.41291
G1 X90.967 Y107.145 E4.49554
G1 X91.05 Y106.766 E4.51006
G1 X91.602 Y104.806 E4.58621
G1 X91.738 Y104.416 E4.60166
G1 X92.631 Y102.297 E4.68766
G1 X92.815 Y101.928 E4.70308
G1 X93.844 Y100.142 E4.78017
G1 X94.015 Y99.875 E4.79203
G1 X94.774 Y98.807 E4.84103
G1 X94.959 Y98.57 E4.85227
G1 X96.128 Y97.205 E4.91949
G1 X96.349 Y96.97 E4.93155
G0 F3600 X96.502 Y97.129
G1 F1800 X97.764 Y95.916 E4.99702
G1 X97.972 Y95.733 E5.00738
G1 X99.036 Y94.879 E5.05841
G1 X99.254 Y94.719 E5.06852
G1 X100.67 Y93.772 E5.13223
G1 X100.973 Y93.593 E5.14539
G1 X102.992 Y92.551 E5.23037
G1 X103.351 Y92.394 E5.24502
G1 X105.401 Y91.645 E5.32665
G1 X105.678 Y91.558 E5.33751
G1 X106.835 Y91.254 E5.38225
G1 X107.178 Y91.184 E5.39534
G1 X109.857 Y90.795 E5.49659
G1 X110.265 Y90.763 E5.51189
G1 X112.271 Y90.738 E5.58692
G1 X112.628 Y90.754 E5.60029
G1 X114.585 Y90.955 E5.67386
G1 X114.89 Y91.002 E5.68541
G1 X116.406 Y91.312 E5.74328
G1 X116.666 Y91.377 E5.7533
G1 X118.165 Y91.821 E5.81177
G1 X118.445 Y91.918 E5.82285
G1 X120.028 Y92.556 E5.88669
G1 X120.312 Y92.688 E5.8984
G1 X122.035 Y93.594 E5.9712
G1 X122.372 Y93.8 E5.98598
G1 X124.411 Y95.228 E6.07908
G1 X124.702 Y95.458 E6.09295
G1 X125.976 Y96.599 E6.15691
G1 X126.18 Y96.8 E6.16762
G1 X127.267 Y97.971 E6.22738
G1 X127.467 Y98.209 E6.23901
G1 X128.581 Y99.679 E6.30799
G1 X128.746 Y99.92 E6.31891
G1 X129.571 Y101.253 E6.37754
G1 X129.748 Y101.58 E6.39145
G1 X130.872 Y104 E6.49124
G1 X131.03 Y104.417 E6.50792
G1 X131.7 Y106.651 E6.59515
G1 X131.795 Y107.07 E6.61122
G1 X132.176 Y109.539 E6.70465
G1 X132.211 Y109.924 E6.71911
G1 X132.27 Y111.978 E6.79596
G1 X132.262 Y112.302 E6.80808
G1 X132.15 Y113.782 E6.86359
G1 X132.102 Y114.141 E6.87714
G1 X131.589 Y116.776 E6.97754
G1 X131.508 Y117.097 E6.98992
G1 X131.172 Y118.189 E7.03265
G1 X131.085 Y118.435 E7.04241
G1 X130.453 Y120.006 E7.10574
G1 X130.321 Y120.292 E7.11752
G1 X129.392 Y122.06 E7.19222
G1 X129.24 Y122.318 E7.20341
G1 X128.519 Y123.418 E7.2526
G1 X128.326 Y123.681 E7.2648
G1 X126.803 Y125.545 E7.35483
G1 X126.602 Y125.768 E7.36606
G1 X125.884 Y126.491 E7.40417
G1 X125.695 Y126.667 E7.41382
G1 X124.257 Y127.893 E7.4845
G1 X124.01 Y128.082 E7.49613
G1 X122.652 Y129.023 E7.55792
G1 X122.379 Y129.192 E7.56993
G1 X120.593 Y130.174 E7.64616
G1 X120.354 Y130.293 E7.65614
G1 X119.36 Y130.733 E7.6968
G1 X118.995 Y130.868 E7.71135
G1 X115.885 Y131.801 E7.83279
G1 X115.401 Y131.905 E7.8513
G1 X113.106 Y132.21 E7.93789
G1 X112.735 Y132.237 E7.9518
G1 X110.729 Y132.262 E8.02683
G1 X110.372 Y132.246 E8.0402
G1 X108.416 Y132.045 E8.11374
G1 X108.111 Y131.998 E8.12528
G1 X106.596 Y131.688 E8.18311
G1 X106.284 Y131.607 E8.19517
G1 X104.204 Y130.951 E8.27674
G1 X103.92 Y130.846 E8.28806
G1 X102.864 Y130.396 E8.33099
G1 X102.629 Y130.284 E8.34073
G1 X100.927 Y129.384 E8.41274
G1 X100.595 Y129.181 E8.42729
G1 X98.603 Y127.784 E8.51829
G1 X98.317 Y127.557 E8.53194
G1 X97.031 Y126.408 E8.59644
G1 X96.821 Y126.202 E8.60744
G1 X95.712 Y125.004 E8.6685
G1 X95.514 Y124.767 E8.68005
G1 X94.409 Y123.306 E8.74856
G1 X94.243 Y123.064 E8.75953
G1 X93.424 Y121.738 E8.81782
G1 X93.284 Y121.485 E8.82864
G1 X92.523 Y119.95 E8.89271
G1 X92.371 Y119.588 E8.9074
G1 X91.468 Y116.984 E9.01048
G1 X91.354 Y116.565 E9.02672
G1 X90.936 Y114.44 E9.10771
G1 X90.89 Y114.113 E9.12007
G1 X90.749 Y112.51 E9.18025
G1 X90.738 Y112.159 E9.19338
G1 X90.798 Y109.773 E9.28265
G1 X90.836 Y109.361 E9.29812
G1 X91.184 Y107.179 E9.38076
G1 X91.261 Y106.826 E9.39427
G1 X91.813 Y104.866 E9.47043
G1 X91.941 Y104.501 E9.48489
G1 X92.834 Y102.382 E9.57089
G1 X93.005 Y102.037 E9.5853
G1 X94.034 Y100.251 E9.66239
G1 X94.194 Y100.002 E9.67345
G1 X94.953 Y98.934 E9.72246
G1 X95.126 Y98.713 E9.73295
G1 X96.295 Y97.348 E9.80017
G1 X96.502 Y97.129 E9.81144
G10
G0 F3600 X98.605 Y98.637
G0 X99.453 Y99.484
G0 X99.973 Y99.687
;TYPE:WALL-INNER
G11
G1 F1800 X100.487 Y99.154 E9.83913
G1 X100.956 Y98.781 E9.86154
G1 X100.966 Y98.752 E9.86269
G1 X101.361 Y98.453 E9.88122
G1 X101.371 Y98.428 E9.88223
G1 X101.604 Y98.264 E9.89288
G1 X101.623 Y98.271 E9.89364
G1 X102.126 Y97.867 E9.91777
G1 X102.637 Y97.559 E9.94008
G1 X102.654 Y97.525 E9.9415
G1 X102.804 Y97.441 E9.94793
G1 X102.825 Y97.458 E9.94894
G1 X103.444 Y97.051 E9.97665
G1 X103.978 Y96.789 E9.9989
G1 X103.995 Y96.763 E10.00006
G1 X104.455 Y96.556 E10.01892
G1 X104.473 Y96.528 E10.02017
G1 X104.917 Y96.346 E10.03812
G1 X104.938 Y96.318 E10.03942
G1 X105.411 Y96.143 E10.05829
G1 X105.431 Y96.116 E10.05954
G1 X105.879 Y95.964 E10.07724
G1 X105.901 Y95.938 E10.07851
G1 X106.383 Y95.79 E10.09737
G1 X106.403 Y95.766 E10.09854
G1 X106.878 Y95.639 E10.11693
G1 X106.903 Y95.613 E10.11827
G1 X107.381 Y95.501 E10.13664
G1 X107.403 Y95.478 E10.13783
G1 X107.882 Y95.38 E10.15611
G1 X107.905 Y95.357 E10.15733
G1 X108.389 Y95.274 E10.17569
G1 X108.414 Y95.252 E10.17694
G1 X108.902 Y95.185 E10.19536
G1 X108.926 Y95.165 E10.19653
G1 X109.409 Y95.111 E10.21471
G1 X109.436 Y95.09 E10.21599
G1 X109.939 Y95.055 E10.23484
G1 X109.965 Y95.035 E10.23607
G1 X110.449 Y95.012 E10.25419
G1 X110.475 Y94.994 E10.25538
G1 X110.661 Y94.991 E10.26233
G1 X110.672 Y95.017 E10.26339
G1 X111.38 Y94.957 E10.28996
G1 X111.997 Y94.983 E10.31306
G1 X112.023 Y94.969 E10.31416
G1 X112.523 Y95.012 E10.33293
G1 X112.552 Y94.996 E10.33417
G1 X113.049 Y95.05 E10.35287
G1 X113.074 Y95.037 E10.35392
G1 X113.555 Y95.107 E10.3721
G1 X113.587 Y95.093 E10.37341
G1 X114.069 Y95.182 E10.39174
G1 X114.099 Y95.17 E10.39295
G1 X114.572 Y95.264 E10.41098
G1 X114.601 Y95.255 E10.41212
G1 X115.08 Y95.371 E10.43055
G1 X115.114 Y95.361 E10.43188
G1 X115.59 Y95.494 E10.45036
G1 X115.625 Y95.483 E10.45173
G1 X116.091 Y95.63 E10.47001
G1 X116.125 Y95.621 E10.47132
G1 X116.59 Y95.783 E10.48974
G1 X116.624 Y95.775 E10.49105
G1 X117.085 Y95.953 E10.50953
G1 X117.115 Y95.947 E10.51067
G1 X117.578 Y96.136 E10.52938
G1 X117.604 Y96.131 E10.53037
G1 X118.037 Y96.326 E10.54813
G1 X118.072 Y96.322 E10.54944
G1 X118.516 Y96.545 E10.56803
G1 X118.55 Y96.541 E10.56931
G1 X118.987 Y96.772 E10.58779
G1 X119.015 Y96.77 E10.58884
G1 X119.446 Y97.013 E10.60735
G1 X119.477 Y97.012 E10.60851
G1 X119.903 Y97.277 E10.62727
G1 X119.933 Y97.276 E10.6284
G1 X120.337 Y97.54 E10.64644
G1 X120.371 Y97.541 E10.64772
G1 X120.78 Y97.833 E10.66651
G1 X120.813 Y97.834 E10.66775
G1 X121.2 Y98.128 E10.68592
G1 X121.235 Y98.131 E10.68724
G1 X121.615 Y98.437 E10.70548
G1 X121.644 Y98.44 E10.70657
G1 X122.022 Y98.759 E10.72507
G1 X122.044 Y98.763 E10.72591
G1 X122.417 Y99.097 E10.74464
G1 X122.442 Y99.101 E10.74558
G1 X122.798 Y99.442 E10.76402
G1 X122.828 Y99.449 E10.76517
G1 X123.166 Y99.802 E10.78345
G1 X123.201 Y99.811 E10.7848
G1 X123.325 Y99.949 E10.79174
G1 X123.313 Y99.973 E10.79274
G1 X123.846 Y100.487 E10.82044
G1 X124.219 Y100.956 E10.84285
G1 X124.248 Y100.966 E10.844
G1 X124.547 Y101.361 E10.86252
G1 X124.572 Y101.371 E10.86353
G1 X124.736 Y101.604 E10.87419
G1 X124.729 Y101.623 E10.87494
G1 X125.133 Y102.126 E10.89907
G1 X125.441 Y102.637 E10.92139
G1 X125.475 Y102.654 E10.92281
G1 X125.559 Y102.804 E10.92924
G1 X125.542 Y102.825 E10.93025
G1 X125.949 Y103.444 E10.95796
G1 X126.211 Y103.978 E10.9802
G1 X126.237 Y103.995 E10.98136
G1 X126.444 Y104.455 E11.00023
G1 X126.472 Y104.473 E11.00147
G1 X126.654 Y104.917 E11.01942
G1 X126.682 Y104.938 E11.02073
G1 X126.857 Y105.411 E11.03959
G1 X126.884 Y105.431 E11.04085
G1 X127.036 Y105.879 E11.05854
G1 X127.062 Y105.901 E11.05982
G1 X127.21 Y106.383 E11.07867
G1 X127.234 Y106.403 E11.07984
G1 X127.361 Y106.878 E11.09823
G1 X127.387 Y106.903 E11.09958
G1 X127.499 Y107.381 E11.11794
G1 X127.522 Y107.403 E11.11913
G1 X127.62 Y107.882 E11.13742
G1 X127.643 Y107.905 E11.13863
G1 X127.726 Y108.389 E11.157
G1 X127.748 Y108.414 E11.15825
G1 X127.815 Y108.902 E11.17667
G1 X127.835 Y108.926 E11.17784
G1 X127.889 Y109.409 E11.19601
G1 X127.91 Y109.436 E11.19729
G1 X127.945 Y109.939 E11.21615
G1 X127.965 Y109.964 E11.21735
G1 X127.988 Y110.449 E11.23551
G1 X128.006 Y110.475 E11.23669
G1 X128.009 Y110.661 E11.24365
G1 X127.983 Y110.672 E11.2447
G1 X128.043 Y111.38 E11.27128
G1 X128.017 Y111.997 E11.29437
G1 X128.031 Y112.023 E11.29548
G1 X127.988 Y112.523 E11.31425
G1 X128.004 Y112.552 E11.31548
G1 X127.95 Y113.049 E11.33418
G1 X127.963 Y113.074 E11.33524
G1 X127.893 Y113.555 E11.35341
G1 X127.907 Y113.587 E11.35472
G1 X127.818 Y114.069 E11.37305
G1 X127.83 Y114.098 E11.37423
G1 X127.736 Y114.572 E11.3923
G1 X127.745 Y114.601 E11.39343
G1 X127.629 Y115.08 E11.41187
G1 X127.639 Y115.114 E11.41319
G1 X127.506 Y115.59 E11.43168
G1 X127.517 Y115.625 E11.43305
G1 X127.37 Y116.091 E11.45132
G1 X127.379 Y116.125 E11.45264
G1 X127.217 Y116.59 E11.47106
G1 X127.225 Y116.624 E11.47236
G1 X127.047 Y117.086 E11.49088
G1 X127.053 Y117.115 E11.49199
G1 X126.864 Y117.578 E11.51069
G1 X126.869 Y117.604 E11.51168
G1 X126.674 Y118.037 E11.52944
G1 X126.678 Y118.072 E11.53076
G1 X126.455 Y118.516 E11.54934
G1 X126.459 Y118.55 E11.55062
G1 X126.228 Y118.987 E11.56911
G1 X126.23 Y119.015 E11.57016
G1 X125.987 Y119.446 E11.58866
G1 X125.988 Y119.477 E11.58982
G1 X125.723 Y119.903 E11.60859
G1 X125.724 Y119.933 E11.60971
G1 X125.46 Y120.337 E11.62776
G1 X125.459 Y120.371 E11.62903
G1 X125.167 Y120.78 E11.64783
G1 X125.166 Y120.813 E11.64906
G1 X124.872 Y121.2 E11.66724
G1 X124.869 Y121.235 E11.66855
G1 X124.563 Y121.615 E11.6868
G1 X124.56 Y121.644 E11.68789
G1 X124.241 Y122.022 E11.70639
G1 X124.237 Y122.044 E11.70722
G1 X123.903 Y122.417 E11.72595
G1 X123.899 Y122.442 E11.7269
G1 X123.558 Y122.798 E11.74533
G1 X123.551 Y122.828 E11.74648
G1 X123.198 Y123.166 E11.76476
G1 X123.189 Y123.201 E11.76611
G1 X123.051 Y123.325 E11.77305
G1 X123.027 Y123.313 E11.77406
G1 X122.513 Y123.846 E11.80175
G1 X122.044 Y124.219 E11.82416
G1 X122.034 Y124.248 E11.82531
G1 X121.639 Y124.547 E11.84384
G1 X121.629 Y124.572 E11.84484
G1 X121.396 Y124.736 E11.8555
G1 X121.377 Y124.729 E11.85626
G1 X120.874 Y125.133 E11.88039
G1 X120.363 Y125.441 E11.9027
G1 X120.346 Y125.475 E11.90412
G1 X120.196 Y125.559 E11.91055
G1 X120.175 Y125.542 E11.91156
G1 X119.556 Y125.949 E11.93927
G1 X119.022 Y126.211 E11.96152
G1 X119.005 Y126.237 E11.96268
G1 X118.545 Y126.444 E11.98154
G1 X118.527 Y126.472 E11.98279
G1 X118.083 Y126.654 E12.00073
G1 X118.062 Y126.682 E12.00204
G1 X117.589 Y126.857 E12.02091
G1 X117.569 Y126.884 E12.02216
G1 X117.121 Y127.036 E12.03986
G1 X117.099 Y127.062 E12.04113
G1 X116.617 Y127.21 E12.05999
G1 X116.597 Y127.234 E12.06116
G1 X116.122 Y127.361 E12.07954
G1 X116.097 Y127.387 E12.08089
G1 X115.619 Y127.499 E12.09925
G1 X115.597 Y127.522 E12.10045
G1 X115.118 Y127.62 E12.11873
G1 X115.095 Y127.643 E12.11995
G1 X114.611 Y127.726 E12.13831
G1 X114.586 Y127.748 E12.13956
G1 X114.098 Y127.815 E12.15798
G1 X114.074 Y127.835 E12.15915
G1 X113.591 Y127.889 E12.17733
G1 X113.564 Y127.91 E12.17861
G1 X113.061 Y127.945 E12.19746
G1 X113.035 Y127.965 E12.19869
G1 X112.551 Y127.988 E12.21681
G1 X112.525 Y128.006 E12.21799
G1 X112.339 Y128.009 E12.22495
G1 X112.328 Y127.983 E12.22601
G1 X111.62 Y128.043 E12.25258
G1 X111.003 Y128.017 E12.27568
G1 X110.977 Y128.031 E12.27678
G1 X110.477 Y127.988 E12.29555
G1 X110.448 Y128.004 E12.29679
G1 X109.951 Y127.95 E12.31549
G1 X109.926 Y127.963 E12.31654
G1 X109.445 Y127.893 E12.33472
G1 X109.413 Y127.907 E12.33603
G1 X108.931 Y127.818 E12.35436
G1 X108.901 Y127.83 E12.35557
G1 X108.428 Y127.736 E12.3736
G1 X108.399 Y127.745 E12.37474
G1 X107.92 Y127.629 E12.39317
G1 X107.886 Y127.639 E12.3945
G1 X107.41 Y127.506 E12.41298
G1 X107.375 Y127.517 E12.41435
G1 X106.909 Y127.37 E12.43263
G1 X106.875 Y127.379 E12.43394
G1 X106.41 Y127.217 E12.45236
G1 X106.376 Y127.225 E12.45367
G1 X105.915 Y127.047 E12.47215
G1 X105.885 Y127.053 E12.47329
G1 X105.422 Y126.864 E12.492
G1 X105.396 Y126.869 E12.49299
G1 X104.963 Y126.674 E12.51075
G1 X104.928 Y126.678 E12.51206
G1 X104.484 Y126.455 E12.53065
G1 X104.45 Y126.459 E12.53193
G1 X104.013 Y126.228 E12.55041
G1 X103.985 Y126.23 E12.55146
G1 X103.554 Y125.987 E12.56997
G1 X103.523 Y125.988 E12.57113
G1 X103.097 Y125.723 E12.58989
G1 X103.067 Y125.724 E12.59101
G1 X102.663 Y125.46 E12.60906
G1 X102.629 Y125.459 E12.61034
G1 X102.22 Y125.167 E12.62913
G1 X102.187 Y125.166 E12.63037
G1 X101.8 Y124.872 E12.64854
G1 X101.765 Y124.869 E12.64986
G1 X101.385 Y124.563 E12.6681
G1 X101.356 Y124.56 E12.66919
G1 X100.978 Y124.241 E12.68769
G1 X100.956 Y124.237 E12.68853
G1 X100.583 Y123.903 E12.70725
G1 X100.558 Y123.899 E12.7082
G1 X100.202 Y123.558 E12.72664
G1 X100.172 Y123.551 E12.72779
G1 X99.834 Y123.198 E12.74607
G1 X99.799 Y123.189 E12.74742
G1 X99.675 Y123.051 E12.75436
G1 X99.687 Y123.027 E12.75536
G1 X99.154 Y122.513 E12.78306
G1 X98.781 Y122.044 E12.80547
G1 X98.752 Y122.034 E12.80661
G1 X98.453 Y121.639 E12.82514
G1 X98.428 Y121.629 E12.82615
G1 X98.264 Y121.396 E12.83681
