;FLAVOR:UltiGCode
;TIME:3406
;MATERIAL:971
;MATERIAL2:0
;NOZZLE_DIAMETER:0.25
;Generated with Cura_SteamEngine 2.5.0

;LAYER_COUNT:65
;LAYER:0
M107
G0 F3600 X94.13 Y94.179 Z0.17
;TYPE:SKIRT
G1 F1800 X94.519 Y93.839 E0.01932
G1 X94.955 Y93.564 E0.0386
G1 X95.428 Y93.359 E0.05788
G1 X95.928 Y93.23 E0.07719
G1 X96.509 Y93.179 E0.09901
G1 X126.491 Y93.18 E1.22033
G1 X127.005 Y93.22 E1.23962
G1 X127.507 Y93.339 E1.25891
G1 X127.985 Y93.534 E1.27822
G1 X128.426 Y93.8 E1.29748
G1 X128.822 Y94.131 E1.31678
G1 X129.161 Y94.52 E1.33608
G1 X129.436 Y94.956 E1.35536
G1 X129.641 Y95.429 E1.37464
G1 X129.77 Y95.929 E1.39395
G1 X129.821 Y96.51 E1.41576
G1 X129.821 Y126.491 E2.53705
G1 X129.781 Y127.005 E2.55634
G1 X129.662 Y127.507 E2.57563
G1 X129.467 Y127.985 E2.59494
G1 X129.201 Y128.426 E2.6142
G1 X128.87 Y128.821 E2.63347
G1 X128.481 Y129.161 E2.6528
G1 X128.045 Y129.436 E2.67208
G1 X127.572 Y129.641 E2.69136
G1 X127.072 Y129.77 E2.71067
G1 X126.491 Y129.821 E2.73248
G1 X96.509 Y129.821 E3.85381
G1 X95.995 Y129.781 E3.87309
G1 X95.493 Y129.662 E3.89238
G1 X95.015 Y129.467 E3.91169
G1 X94.574 Y129.201 E3.93095
G1 X94.179 Y128.87 E3.95023
G1 X93.839 Y128.481 E3.96955
G1 X93.564 Y128.045 E3.98883
G1 X93.359 Y127.572 E4.00811
G1 X93.23 Y127.072 E4.02742
G1 X93.179 Y126.491 E4.04923
G1 X93.179 Y96.509 E5.17056
G1 X93.219 Y95.995 E5.18984
G1 X93.338 Y95.493 E5.20914
G1 X93.533 Y95.015 E5.22845
G1 X93.799 Y94.574 E5.24771
G1 X94.13 Y94.179 E5.26698
G0 F3600 X94.347 Y94.273
G1 F1800 X94.732 Y93.957 E5.28561
G1 X95.162 Y93.706 E5.30423
G1 X95.628 Y93.527 E5.3229
G1 X96.115 Y93.424 E5.34152
G1 X96.509 Y93.399 E5.35628
G1 X126.491 Y93.4 E6.47761
G1 X126.988 Y93.44 E6.49626
G1 X127.472 Y93.559 E6.5149
G1 X127.931 Y93.753 E6.53354
G1 X128.353 Y94.019 E6.55219
G1 X128.727 Y94.348 E6.57082
G1 X129.043 Y94.733 E6.58945
G1 X129.294 Y95.164 E6.6081
G1 X129.473 Y95.629 E6.62674
G1 X129.576 Y96.116 E6.64535
G1 X129.601 Y96.51 E6.66012
G1 X129.601 Y126.491 E7.78141
G1 X129.561 Y126.988 E7.80006
G1 X129.442 Y127.472 E7.8187
G1 X129.248 Y127.931 E7.83733
G1 X128.982 Y128.353 E7.85599
G1 X128.653 Y128.727 E7.87462
G1 X128.268 Y129.043 E7.89325
G1 X127.838 Y129.294 E7.91187
G1 X127.372 Y129.473 E7.93054
G1 X126.885 Y129.576 E7.94916
G1 X126.491 Y129.601 E7.96392
G1 X96.509 Y129.601 E9.08525
G1 X96.012 Y129.561 E9.1039
G1 X95.528 Y129.442 E9.12254
G1 X95.069 Y129.248 E9.14117
G1 X94.647 Y128.982 E9.15983
G1 X94.273 Y128.653 E9.17846
G1 X93.957 Y128.268 E9.19709
G1 X93.706 Y127.838 E9.21571
G1 X93.527 Y127.372 E9.23438
G1 X93.424 Y126.885 E9.253
G1 X93.399 Y126.491 E9.26776
G1 X93.399 Y96.509 E10.38909
G1 X93.439 Y96.012 E10.40774
G1 X93.558 Y95.528 E10.42638
G1 X93.752 Y95.069 E10.44501
G1 X94.018 Y94.647 E10.46367
G1 X94.347 Y94.273 E10.4823
G10
G0 F3600 X96.844 Y95.96
G0 X96.844 Y96.844
G0 X97.27 Y97.27
;TYPE:WALL-INNER
G11
G1 F1800 X125.73 Y97.27 E11.5467
G1 X125.73 Y125.73 E12.61111
G1 X97.27 Y125.73 E13.67551
G1 X97.27 Y97.27 E14.73992
G0 F3600 X110.715 Y110.564
G1 F1800 X110.564 Y110.715 E14.7479
G1 X110.442 Y110.891 E14.75591
G1 X110.353 Y111.081 E14.76376
G1 X110.298 Y111.282 E14.77155
G1 X110.276 Y111.5 E14.77975
G1 X110.298 Y111.718 E14.78794
G1 X110.353 Y111.919 E14.79574
G1 X110.442 Y112.109 E14.80358
G1 X110.564 Y112.285 E14.81159
G1 X110.715 Y112.436 E14.81958
G1 X110.891 Y112.558 E14.82759
G1 X111.081 Y112.647 E14.83543
G1 X111.282 Y112.702 E14.84323
G1 X111.5 Y112.724 E14.85142
G1 X111.718 Y112.702 E14.85962
G1 X111.919 Y112.647 E14.86741
G1 X112.109 Y112.558 E14.87526
G1 X112.285 Y112.436 E14.88327
G1 X112.436 Y112.285 E14.89125
G1 X112.558 Y112.109 E14.89926
G1 X112.647 Y111.919 E14.90711
G1 X112.702 Y111.718 E14.9149
G1 X112.724 Y111.5 E14.9231
G1 X112.702 Y111.282 E14.93129
G1 X112.647 Y111.081 E14.93909
G1 X112.558 Y110.891 E14.94693
G1 X112.436 Y110.715 E14.95494
G1 X112.285 Y110.564 E14.96293
G1 X112.109 Y110.442 E14.97094
G1 X111.919 Y110.353 E14.97879
G1 X111.718 Y110.298 E14.98658
G1 X111.5 Y110.276 E14.99477
G1 X111.282 Y110.298 E15.00297
G1 X111.081 Y110.353 E15.01076
G1 X110.891 Y110.442 E15.01861
G1 X110.715 Y110.564 E15.02662
G0 F3600 X110.857 Y110.733
G1 F1800 X110.733 Y110.857 E15.03318
G1 X110.633 Y111.001 E15.03973
G1 X110.56 Y111.157 E15.04618
G1 X110.515 Y111.322 E15.05257
G1 X110.497 Y111.5 E15.05926
G1 X110.515 Y111.678 E15.06595
G1 X110.56 Y111.843 E15.07235
G1 X110.633 Y111.999 E15.07879
G1 X110.733 Y112.143 E15.08535
G1 X110.857 Y112.267 E15.09191
G1 X111.001 Y112.367 E15.09846
G1 X111.157 Y112.44 E15.10491
G1 X111.322 Y112.485 E15.1113
G1 X111.5 Y112.503 E15.11799
G1 X111.678 Y112.485 E15.12469
G1 X111.843 Y112.44 E15.13108
G1 X111.999 Y112.367 E15.13752
G1 X112.143 Y112.267 E15.14408
G1 X112.267 Y112.143 E15.15064
G1 X112.367 Y111.999 E15.1572
G1 X112.44 Y111.843 E15.16364
G1 X112.485 Y111.678 E15.17003
G1 X112.503 Y111.5 E15.17672
G1 X112.485 Y111.322 E15.18342
G1 X112.44 Y111.157 E15.18981
G1 X112.367 Y111.001 E15.19625
G1 X112.267 Y110.857 E15.20281
G1 X112.143 Y110.733 E15.20937
G1 X111.999 Y110.633 E15.21593
G1 X111.843 Y110.56 E15.22237
G1 X111.678 Y110.515 E15.22876
G1 X111.5 Y110.497 E15.23546
G1 X111.322 Y110.515 E15.24215
G1 X111.157 Y110.56 E15.24854
G1 X111.001 Y110.633 E15.25498
G1 X110.857 Y110.733 E15.26154
G0 F3600 X97.05 Y97.05
G1 F1800 X125.95 Y97.05 E16.3424
G1 X125.95 Y125.95 E17.42326
G1 X97.05 Y125.95 E18.50412
G1 X97.05 Y97.05 E19.58498
G0 F3600 X96.83 Y96.83
G1 F1800 X126.17 Y96.83 E20.6823
G1 X126.17 Y126.17 E21.77961
G1 X96.83 Y126.17 E22.87693
G1 X96.83 Y96.83 E23.97425
G0 F3600 X96.9 Y96.9
G0 X110.935 Y110.826
G0 X110.999 Y110.902
G1 F1800 X110.902 Y110.999 E23.97938
G1 X110.824 Y111.111 E23.98448
G1 X110.767 Y111.233 E23.98952
G1 X110.732 Y111.362 E23.99452
G1 X110.718 Y111.5 E23.9997
G1 X110.732 Y111.638 E24.00489
G1 X110.767 Y111.767 E24.00989
G1 X110.824 Y111.889 E24.01493
G1 X110.902 Y112.001 E24.02003
G1 X110.999 Y112.098 E24.02516
G1 X111.111 Y112.176 E24.03027
G1 X111.233 Y112.233 E24.0353
G1 X111.362 Y112.268 E24.0403
G1 X111.5 Y112.282 E24.04549
G1 X111.638 Y112.268 E24.05068
G1 X111.767 Y112.233 E24.05568
G1 X111.889 Y112.176 E24.06071
G1 X112.001 Y112.098 E24.06582
G1 X112.098 Y112.001 E24.07095
G1 X112.176 Y111.889 E24.07605
G1 X112.233 Y111.767 E24.08109
G1 X112.268 Y111.638 E24.08609
G1 X112.282 Y111.5 E24.09127
G1 X112.268 Y111.362 E24.09646
G1 X112.233 Y111.233 E24.10146
G1 X112.176 Y111.111 E24.1065
G1 X112.098 Y110.999 E24.1116
G1 X112.001 Y110.902 E24.11673
G1 X111.889 Y110.824 E24.12184
G1 X111.767 Y110.767 E24.12687
G1 X111.638 Y110.732 E24.13187
G1 X111.5 Y110.718 E24.13706
G1 X111.362 Y110.732 E24.14225
G1 X111.233 Y110.767 E24.14725
G1 X111.111 Y110.824 E24.15228
G1 X110.999 Y110.902 E24.15739
G0 F3600 X111.131 Y111.06
;TYPE:WALL-OUTER
G1 F1800 X111.06 Y111.131 E24.16114
G1 X111.002 Y111.214 E24.16493
G1 X110.96 Y111.304 E24.16864
G1 X110.934 Y111.399 E24.17233
G1 X110.924 Y111.5 E24.17612
G1 X110.934 Y111.601 E24.17992
G1 X110.96 Y111.696 E24.1836
G1 X111.002 Y111.786 E24.18732
G1 X111.06 Y111.869 E24.1911
G1 X111.131 Y111.94 E24.19486
G1 X111.214 Y111.998 E24.19865
G1 X111.304 Y112.04 E24.20236
G1 X111.399 Y112.066 E24.20604
G1 X111.5 Y112.076 E24.20984
G1 X111.601 Y112.066 E24.21364
G1 X111.696 Y112.04 E24.21732
G1 X111.786 Y111.998 E24.22103
G1 X111.869 Y111.94 E24.22482
G1 X111.94 Y111.869 E24.22858
G1 X111.998 Y111.786 E24.23236
G1 X112.04 Y111.696 E24.23608
G1 X112.066 Y111.601 E24.23976
G1 X112.076 Y111.5 E24.24356
G1 X112.066 Y111.399 E24.24735
G1 X112.04 Y111.304 E24.25104
G1 X111.998 Y111.214 E24.25475
G1 X111.94 Y111.131 E24.25854
G1 X111.869 Y111.06 E24.26229
G1 X111.786 Y111.002 E24.26608
G1 X111.696 Y110.96 E24.2698
G1 X111.601 Y110.934 E24.27348
G1 X111.5 Y110.924 E24.27728
G1 X111.399 Y110.934 E24.28107
G1 X111.304 Y110.96 E24.28475
G1 X111.214 Y111.002 E24.28847
G1 X111.131 Y111.06 E24.29226
G0 F3600 X111.06 Y111.131
G0 X111.046 Y111.151
G0 X110.796 Y110.976
G0 X96.9 Y96.9
G0 X96.625 Y96.625
G1 F1800 X126.375 Y96.625 E25.40491
G1 X126.375 Y126.375 E26.51756
G1 X96.625 Y126.375 E27.63021
G1 X96.625 Y96.625 E28.74286
G0 F3600 X96.75 Y96.625
G0 X96.9 Y96.9
G0 X97.368 Y97.368
;TYPE:SKIN
G1 F1800 X110.568 Y110.568 E29.44103
G1 X110.606 Y110.606
G0 F3600 X110.737 Y110.426
G1 F1800 X97.679 Y97.368 E30.13168
G1 X97.641 Y97.33
G0 F3600 X97.99 Y97.368
G1 F1800 X110.933 Y110.311 E30.81626
G1 X110.971 Y110.349
G0 F3600 X111.16 Y110.227
G1 F1800 X98.301 Y97.368 E31.49639
G1 X98.263 Y97.33
G0 F3600 X98.613 Y97.368
G1 F1800 X111.427 Y110.182 E32.17415
G1 X111.465 Y110.22
G0 F3600 X111.763 Y110.207
G1 F1800 X98.924 Y97.368 E32.85322
G1 X98.886 Y97.33
G0 F3600 X99.235 Y97.368
G1 F1800 X125.63 Y123.764 E34.24932
G1 X125.668 Y123.802
G0 F3600 X125.63 Y123.453
G1 F1800 X99.546 Y97.368 E35.62897
G1 X99.508 Y97.33
G0 F3600 X99.857 Y97.368
G1 F1800 X125.63 Y123.141 E36.99215
G1 X125.668 Y123.179
G0 F3600 X125.63 Y122.83
G1 F1800 X100.168 Y97.368 E38.33887
G1 X100.13 Y97.33
G0 F3600 X100.479 Y97.368
G1 F1800 X125.63 Y122.519 E39.66915
G1 X125.668 Y122.557
G0 F3600 X125.63 Y122.208
G1 F1800 X100.791 Y97.368 E40.98295
G1 X100.753 Y97.33
G0 F3600 X101.102 Y97.368
G1 F1800 X125.63 Y121.897 E42.2803
G1 X125.668 Y121.935
G0 F3600 X125.63 Y121.586
G1 F1800 X101.413 Y97.368 E43.5612
G1 X101.375 Y97.33
G0 F3600 X101.724 Y97.368
G1 F1800 X125.63 Y121.275 E44.82565
G1 X125.668 Y121.313
G0 F3600 X125.63 Y120.964
G1 F1800 X102.035 Y97.368 E46.07366
G1 X101.997 Y97.33
G0 F3600 X102.346 Y97.368
G1 F1800 X125.63 Y120.652 E47.30519
G1 X125.668 Y120.69
G0 F3600 X125.63 Y120.341
G1 F1800 X102.657 Y97.368 E48.52026
G1 X102.619 Y97.33
G0 F3600 X102.968 Y97.368
G1 F1800 X125.63 Y120.03 E49.71889
G1 X125.668 Y120.068
G0 F3600 X125.63 Y119.719
G1 F1800 X103.28 Y97.368 E50.90105
G1 X103.242 Y97.33
G0 F3600 X103.591 Y97.368
G1 F1800 X125.63 Y119.408 E52.06675
G1 X125.668 Y119.446
G0 F3600 X125.63 Y119.097
G1 F1800 X103.902 Y97.368 E53.21601
G1 X103.864 Y97.33
G0 F3600 X104.213 Y97.368
G1 F1800 X125.63 Y118.786 E54.34881
G1 X125.668 Y118.824
G0 F3600 X125.63 Y118.475
G1 F1800 X104.524 Y97.368 E55.46517
G1 X104.486 Y97.33
G0 F3600 X104.835 Y97.368
G1 F1800 X125.63 Y118.163 E56.56505
G1 X125.668 Y118.201
G0 F3600 X125.63 Y117.852
G1 F1800 X105.146 Y97.368 E57.64848
G1 X105.108 Y97.33
G0 F3600 X105.457 Y97.368
G1 F1800 X125.63 Y117.541 E58.71546
G1 X125.668 Y117.579
G0 F3600 X125.63 Y117.23
G1 F1800 X105.769 Y97.368 E59.76597
G1 X105.731 Y97.33
G0 F3600 X106.08 Y97.368
G1 F1800 X125.63 Y116.919 E60.80002
G1 X125.668 Y116.957
G0 F3600 X125.63 Y116.608
G1 F1800 X106.391 Y97.368 E61.81763
G1 X106.353 Y97.33
G0 F3600 X106.702 Y97.368
G1 F1800 X125.63 Y116.297 E62.81879
G1 X125.668 Y116.335
G0 F3600 X125.63 Y115.986
G1 F1800 X107.013 Y97.368 E63.8035
G1 X106.975 Y97.33
G0 F3600 X107.324 Y97.368
G1 F1800 X125.63 Y115.674 E64.77173
G1 X125.668 Y115.712
G0 F3600 X125.63 Y115.363
G1 F1800 X107.635 Y97.368 E65.72352
G1 X107.597 Y97.33
G0 F3600 X107.946 Y97.368
G1 F1800 X125.63 Y115.052 E66.65885
G1 X125.668 Y115.09
G0 F3600 X125.63 Y114.741
G1 F1800 X108.258 Y97.368 E67.57771
G1 X108.22 Y97.33
G0 F3600 X108.569 Y97.368
G1 F1800 X125.63 Y114.43 E68.48012
G1 X125.668 Y114.468
G0 F3600 X125.63 Y114.119
G1 F1800 X108.88 Y97.368 E69.36608
G1 X108.842 Y97.33
G0 F3600 X109.191 Y97.368
G1 F1800 X125.63 Y113.808 E70.23559
G1 X125.668 Y113.846
G0 F3600 X125.63 Y113.497
G1 F1800 X109.502 Y97.368 E71.08865
G1 X109.464 Y97.33
G0 F3600 X109.813 Y97.368
G1 F1800 X125.63 Y113.185 E71.92524
G1 X125.668 Y113.223
G0 F3600 X125.63 Y112.874
G1 F1800 X110.124 Y97.368 E72.74538
G1 X110.086 Y97.33
G0 F3600 X110.435 Y97.368
G1 F1800 X125.63 Y112.563 E73.54907
G1 X125.668 Y112.601
G0 F3600 X125.63 Y112.252
G1 F1800 X110.747 Y97.368 E74.33628
G1 X110.709 Y97.33
G0 F3600 X111.058 Y97.368
G1 F1800 X125.63 Y111.941 E75.10704
G1 X125.668 Y111.979
G0 F3600 X125.63 Y111.63
G1 F1800 X111.369 Y97.368 E75.86135
G1 X111.331 Y97.33
G0 F3600 X111.68 Y97.368
G1 F1800 X125.63 Y111.319 E76.59922
G1 X125.668 Y111.357
G0 F3600 X125.63 Y111.007
G1 F1800 X111.991 Y97.368 E77.32061
G1 X111.953 Y97.33
G0 F3600 X112.302 Y97.368
G1 F1800 X125.63 Y110.696 E78.02554
G1 X125.668 Y110.734
G0 F3600 X125.63 Y110.385
G1 F1800 X112.613 Y97.368 E78.71403
G1 X112.575 Y97.33
G0 F3600 X112.924 Y97.368
G1 F1800 X125.63 Y110.074 E79.38607
G1 X125.668 Y110.112
G0 F3600 X125.63 Y109.763
G1 F1800 X113.236 Y97.368 E80.04164
G1 X113.198 Y97.33
G0 F3600 X113.547 Y97.368
G1 F1800 X125.63 Y109.452 E80.68076
G1 X125.668 Y109.49
G0 F3600 X125.63 Y109.141
G1 F1800 X113.858 Y97.368 E81.30342
G1 X113.82 Y97.33
G0 F3600 X114.169 Y97.368
G1 F1800 X125.63 Y108.83 E81.90964
G1 X125.668 Y108.868
G0 F3600 X125.63 Y108.518
G1 F1800 X114.48 Y97.368 E82.49938
G1 X114.442 Y97.33
G0 F3600 X114.791 Y97.368
G1 F1800 X125.63 Y108.207 E83.07267
G1 X125.668 Y108.245
G0 F3600 X125.63 Y107.896
G1 F1800 X115.102 Y97.368 E83.62951
G1 X115.064 Y97.33
G0 F3600 X115.413 Y97.368
G1 F1800 X125.63 Y107.585 E84.16991
G1 X125.668 Y107.623
G0 F3600 X125.63 Y107.274
G1 F1800 X115.725 Y97.368 E84.69383
G1 X115.687 Y97.33
G0 F3600 X116.036 Y97.368
G1 F1800 X125.63 Y106.963 E85.20129
G1 X125.668 Y107.001
G0 F3600 X125.63 Y106.652
G1 F1800 X116.347 Y97.368 E85.69231
G1 X116.309 Y97.33
G0 F3600 X116.658 Y97.368
G1 F1800 X125.63 Y106.341 E86.16688
G1 X125.668 Y106.379
G0 F3600 X125.63 Y106.029
G1 F1800 X116.969 Y97.368 E86.62498
G1 X116.931 Y97.33
G0 F3600 X117.28 Y97.368
G1 F1800 X125.63 Y105.718 E87.06662
G1 X125.668 Y105.756
G0 F3600 X125.63 Y105.407
G1 F1800 X117.591 Y97.368 E87.49182
G1 X117.553 Y97.33
G0 F3600 X117.902 Y97.368
G1 F1800 X125.63 Y105.096 E87.90056
G1 X125.668 Y105.134
G0 F3600 X125.63 Y104.785
G1 F1800 X118.214 Y97.368 E88.29283
G1 X118.176 Y97.33
G0 F3600 X118.525 Y97.368
G1 F1800 X125.63 Y104.474 E88.66865
G1 X125.668 Y104.512
G0 F3600 X125.63 Y104.163
G1 F1800 X118.836 Y97.368 E89.02803
G1 X118.798 Y97.33
G0 F3600 X119.147 Y97.368
G1 F1800 X125.63 Y103.852 E89.37095
G1 X125.668 Y103.89
G0 F3600 X125.63 Y103.54
G1 F1800 X119.458 Y97.368 E89.6974
G1 X119.42 Y97.33
G0 F3600 X119.769 Y97.368
G1 F1800 X125.63 Y103.229 E90.00739
G1 X125.668 Y103.267
G0 F3600 X125.63 Y102.918
G1 F1800 X120.08 Y97.368 E90.30094
G1 X120.042 Y97.33
G0 F3600 X120.392 Y97.368
G1 F1800 X125.63 Y102.607 E90.57801
G1 X125.668 Y102.645
G0 F3600 X125.63 Y102.296
G1 F1800 X120.703 Y97.368 E90.83864
G1 X120.665 Y97.33
G0 F3600 X121.014 Y97.368
G1 F1800 X125.63 Y101.985 E91.08281
G1 X125.668 Y102.023
G0 F3600 X125.63 Y101.674
G1 F1800 X121.325 Y97.368 E91.31054
G1 X121.287 Y97.33
G0 F3600 X121.636 Y97.368
G1 F1800 X125.63 Y101.363 E91.52181
G1 X125.668 Y101.401
G0 F3600 X125.63 Y101.051
G1 F1800 X121.947 Y97.368 E91.71661
G1 X121.909 Y97.33
G0 F3600 X122.258 Y97.368
G1 F1800 X125.63 Y100.74 E91.89496
G1 X125.668 Y100.778
G0 F3600 X125.63 Y100.429
G1 F1800 X122.569 Y97.368 E92.05686
G1 X122.531 Y97.33
G0 F3600 X122.881 Y97.368
G1 F1800 X125.63 Y100.118 E92.20229
G1 X125.668 Y100.156
G0 F3600 X125.63 Y99.807
G1 F1800 X123.192 Y97.368 E92.33126
G1 X123.154 Y97.33
G0 F3600 X123.503 Y97.368
G1 F1800 X125.63 Y99.496 E92.44379
G1 X125.668 Y99.534
G0 F3600 X125.63 Y99.185
G1 F1800 X123.814 Y97.368 E92.53987
G1 X123.776 Y97.33
G0 F3600 X124.125 Y97.368
G1 F1800 X125.63 Y98.874 E92.6195
G1 X125.668 Y98.912
G0 F3600 X125.63 Y98.562
G1 F1800 X124.436 Y97.368 E92.68265
G1 X124.398 Y97.33
G0 F3600 X124.747 Y97.368
G1 F1800 X125.63 Y98.251 E92.72935
G1 X125.668 Y98.289
G0 F3600 X125.63 Y97.94
G1 F1800 X125.058 Y97.368 E92.75961
G1 X125.02 Y97.33
G0 F3600 X125.37 Y97.368
G1 F1800 X125.63 Y97.629 E92.77339
G0 F3600 X112.79 Y111.234
G1 F1800 X125.63 Y124.075 E93.45254
G1 X125.668 Y124.113
G0 F3600 X125.63 Y124.386
G1 F1800 X112.815 Y111.57 E94.13037
G1 X112.777 Y111.532
G0 F3600 X112.77 Y111.837
G1 F1800 X125.63 Y124.697 E94.81056
G1 X125.668 Y124.735
G0 F3600 X125.63 Y125.008
G1 F1800 X112.686 Y112.064 E95.49519
G1 X112.648 Y112.026
G0 F3600 X112.572 Y112.26
G1 F1800 X125.63 Y125.319 E96.18587
G1 X125.668 Y125.357
G0 F3600 X125.63 Y125.63
G1 F1800 X112.429 Y112.429 E96.88409
G1 X112.391 Y112.391
