;FLAVOR:UltiGCode
;TIME:6089
;MATERIAL:1661
;MATERIAL2:0
;NOZZLE_DIAMETER:0.25
;Generated with Cura_SteamEngine 2.5.0

;LAYER_COUNT:40
;LAYER:0
M107
G0 F3600 X93.977 Y93.963 Z0.17
;TYPE:SKIRT
G1 F1800 X94.37 Y93.629 E0.01929
G1 X94.809 Y93.359 E0.03856
G1 X95.285 Y93.16 E0.05786
G1 X95.786 Y93.038 E0.07715
G1 X96.308 Y92.994 E0.09674
G1 X109.547 Y92.925 E0.59188
G1 X109.633 Y92.926 E0.5951
G1 X116.968 Y93.077 E0.86949
G1 X122.366 Y92.936 E1.07144
G1 X122.5 Y92.935 E1.07645
G1 X126.723 Y92.995 E1.23441
G1 X127.237 Y93.043 E1.25372
G1 X127.737 Y93.169 E1.273
G1 X128.212 Y93.37 E1.29229
G1 X128.65 Y93.643 E1.31159
G1 X129.04 Y93.98 E1.33087
G1 X129.374 Y94.373 E1.35016
G1 X129.643 Y94.813 E1.36945
G1 X129.841 Y95.289 E1.38873
G1 X129.963 Y95.79 E1.40801
G1 X130.006 Y96.283 E1.42652
G1 X130.075 Y101.758 E1.6313
G1 X130.072 Y101.94 E1.63811
G1 X129.84 Y107.459 E1.8447
G1 X129.83 Y114.002 E2.08941
G1 X130.079 Y121.249 E2.36061
G1 X130.081 Y121.411 E2.36667
G1 X130.005 Y126.724 E2.5654
G1 X129.957 Y127.237 E2.58467
G1 X129.831 Y127.737 E2.60395
G1 X129.63 Y128.212 E2.62324
G1 X129.357 Y128.65 E2.64254
G1 X129.02 Y129.04 E2.66182
G1 X128.627 Y129.374 E2.68111
G1 X128.187 Y129.643 E2.7004
G1 X127.711 Y129.841 E2.71968
G1 X127.209 Y129.963 E2.739
G1 X126.717 Y130.006 E2.75747
G1 X121.242 Y130.075 E2.96225
G1 X121.087 Y130.073 E2.96805
G1 X116.539 Y129.918 E3.13824
G1 X113.833 Y129.922 E3.23945
G1 X109.689 Y130.073 E3.39454
G1 X109.548 Y130.075 E3.39981
G1 X96.304 Y129.994 E3.89514
G1 X95.79 Y129.951 E3.91444
G1 X95.289 Y129.829 E3.93372
G1 X94.812 Y129.631 E3.95304
G1 X94.372 Y129.362 E3.97232
G1 X93.979 Y129.028 E3.99161
G1 X93.642 Y128.638 E4.01089
G1 X93.369 Y128.2 E4.03019
G1 X93.168 Y127.725 E4.04948
G1 X93.042 Y127.225 E4.06877
G1 X92.994 Y126.706 E4.08826
G1 X92.925 Y121.227 E4.29319
G1 X92.93 Y120.997 E4.3018
G1 X93.083 Y118.294 E4.40305
G1 X93.17 Y114.175 E4.55713
G1 X93.13 Y106.2 E4.8554
G1 X92.928 Y101.962 E5.01408
G1 X92.924 Y101.76 E5.02164
G1 X92.995 Y96.281 E5.22657
G1 X93.042 Y95.767 E5.24588
G1 X93.167 Y95.267 E5.26515
G1 X93.368 Y94.792 E5.28444
G1 X93.64 Y94.354 E5.30372
G1 X93.977 Y93.963 E5.32303
G0 F3600 X94.192 Y94.061
G1 F1800 X94.581 Y93.749 E5.34168
G1 X95.015 Y93.503 E5.36034
G1 X95.482 Y93.33 E5.37896
G1 X95.971 Y93.234 E5.3976
G1 X96.309 Y93.214 E5.41026
G1 X109.548 Y93.145 E5.90541
G1 X109.628 Y93.146 E5.9084
G1 X116.969 Y93.297 E6.18301
G1 X122.372 Y93.156 E6.38515
G1 X122.497 Y93.155 E6.38983
G1 X126.72 Y93.215 E6.54779
G1 X127.216 Y93.262 E6.56642
G1 X127.699 Y93.388 E6.58509
G1 X128.155 Y93.589 E6.60373
G1 X128.573 Y93.86 E6.62236
G1 X128.942 Y94.195 E6.641
G1 X129.253 Y94.584 E6.65962
G1 X129.498 Y95.018 E6.67826
G1 X129.671 Y95.486 E6.69692
G1 X129.766 Y95.975 E6.71555
G1 X129.786 Y96.286 E6.72721
G1 X129.855 Y101.761 E6.93199
G1 X129.852 Y101.931 E6.93835
G1 X129.62 Y107.45 E7.14494
G1 X129.61 Y114.008 E7.39021
G1 X129.859 Y121.256 E7.66145
G1 X129.861 Y121.407 E7.6671
G1 X129.785 Y126.72 E7.86582
G1 X129.738 Y127.217 E7.88449
G1 X129.612 Y127.699 E7.90312
G1 X129.411 Y128.155 E7.92176
G1 X129.139 Y128.573 E7.94041
G1 X128.805 Y128.942 E7.95903
G1 X128.415 Y129.253 E7.97768
G1 X127.981 Y129.498 E7.99632
G1 X127.514 Y129.671 E8.01495
G1 X127.025 Y129.766 E8.03358
G1 X126.714 Y129.786 E8.04524
G1 X121.239 Y129.855 E8.25002
G1 X121.094 Y129.853 E8.25544
G1 X116.546 Y129.698 E8.42563
G1 X113.824 Y129.702 E8.52744
G1 X109.681 Y129.853 E8.68249
G1 X109.549 Y129.855 E8.68743
G1 X96.305 Y129.774 E9.18276
G1 X95.808 Y129.731 E9.20142
G1 X95.325 Y129.609 E9.22005
G1 X94.867 Y129.412 E9.2387
G1 X94.447 Y129.144 E9.25733
G1 X94.075 Y128.812 E9.27598
G1 X93.761 Y128.425 E9.29462
G1 X93.512 Y127.993 E9.31326
G1 X93.336 Y127.527 E9.33189
G1 X93.237 Y127.039 E9.35052
G1 X93.214 Y126.703 E9.36311
G1 X93.145 Y121.224 E9.56804
G1 X93.15 Y121.01 E9.57605
G1 X93.302 Y118.312 E9.67712
G1 X93.39 Y114.179 E9.83172
G1 X93.35 Y106.188 E10.13059
G1 X93.148 Y101.951 E10.28924
G1 X93.144 Y101.763 E10.29627
G1 X93.215 Y96.284 E10.5012
G1 X93.262 Y95.787 E10.51987
G1 X93.387 Y95.305 E10.53849
G1 X93.587 Y94.849 E10.55712
G1 X93.858 Y94.43 E10.57578
G1 X94.192 Y94.061 E10.59439
G0 F3600 X96.425 Y96.425
;TYPE:SUPPORT
G1 F1800 X101.055 Y96.425 E10.76756
G1 X101.262 Y96.355 E10.77573
G1 X101.28 Y96.355 E10.7764
G1 X101.28 Y101.28 E10.9606
G1 X96.355 Y101.28 E11.14479
G1 X96.355 Y101.262 E11.14546
G1 X96.425 Y101.055 E11.15364
G1 X96.425 Y96.425 E11.3268
G10
G0 F3600 X100.987 Y95.987
G0 X104.97 Y95.975
G0 X104.97 Y96.355
G11
G1 F1800 X109.03 Y96.355 E11.47864
G1 X109.03 Y106.72 E11.86629
G1 X116.28 Y106.72 E12.13744
G1 X116.28 Y116.28 E12.49499
G1 X109.03 Y116.28 E12.76614
G1 X109.03 Y126.645 E13.15379
G1 X104.97 Y126.645 E13.30563
G1 X104.97 Y96.355 E14.43848
G10
G0 F3600 X105.275 Y96.355
G0 X105.263 Y127.013
G0 X100.987 Y127.013
G0 X100.987 Y122.013
G0 X101.28 Y121.72
G11
G1 F1800 X101.28 Y126.645 E14.62267
G1 X101.262 Y126.645 E14.62335
G1 X101.055 Y126.575 E14.63152
G1 X96.425 Y126.575 E14.80468
G1 X96.425 Y121.945 E14.97784
G1 X96.355 Y121.738 E14.98602
G1 X96.355 Y121.72 E14.98669
G1 X101.28 Y121.72 E15.17088
G0 F3600 X101.154 Y121.83
G1 F1800 X101.154 Y126.491 E15.34521
G0 F3600 X101.169 Y126.076
G1 F1800 X96.534 Y126.076 E15.51855
G0 F3600 X96.756 Y126.465
G1 F1800 X96.756 Y121.83 E15.6919
G10
G0 F3600 X96.756 Y122.025
G0 X96.534 Y123.144
G11
G1 F1800 X101.169 Y123.144 E15.86525
G10
G0 F3600 X100.975 Y123.144
G0 X100.975 Y124.61
G0 X101.169 Y124.61
G11
G1 F1800 X96.534 Y124.61 E16.0386
G0 F3600 X98.222 Y126.465
G1 F1800 X98.222 Y121.83 E16.21195
G10
G0 F3600 X98.222 Y122.025
G0 X99.688 Y122.025
G0 X99.688 Y121.83
G11
G1 F1800 X99.688 Y126.465 E16.3853
G10
G0 F3600 X100.987 Y127.013
G0 X105.263 Y127.013
G0 X105.275 Y126.076
G0 X105.079 Y126.076
G11
G1 F1800 X108.919 Y126.076 E16.52892
G10
G0 F3600 X108.725 Y126.076
G0 X108.484 Y126.535
G11
G1 F1800 X108.484 Y96.465 E17.65353
G10
G0 F3600 X108.725 Y96.756
G0 X108.92 Y96.756
G11
G1 F1800 X105.08 Y96.756 E17.79715
G10
G0 F3600 X105.275 Y96.756
G0 X105.552 Y96.465
G11
G1 F1800 X105.552 Y126.535 E18.92177
G0 F3600 X107.018 Y126.535
G1 F1800 X107.018 Y96.465 E20.04639
G10
G0 F3600 X108.725 Y98.222
G0 X108.92 Y98.222
G11
G1 F1800 X105.08 Y98.222 E20.19
G10
G0 F3600 X105.275 Y98.222
G0 X105.275 Y99.688
G0 X105.08 Y99.688
G11
G1 F1800 X108.92 Y99.688 E20.33362
G10
G0 F3600 X108.725 Y99.688
G0 X108.725 Y101.154
G0 X108.92 Y101.154
G11
G1 F1800 X105.08 Y101.154 E20.47723
G10
G0 F3600 X105.275 Y101.154
G0 X105.275 Y102.62
G0 X105.08 Y102.62
G11
G1 F1800 X108.92 Y102.62 E20.62085
G10
G0 F3600 X108.725 Y102.62
G0 X108.725 Y104.086
G0 X108.92 Y104.086
G11
G1 F1800 X105.08 Y104.086 E20.76447
G10
G0 F3600 X105.275 Y104.086
G0 X105.275 Y105.552
G0 X105.08 Y105.552
G11
G1 F1800 X108.92 Y105.552 E20.90808
G10
G0 F3600 X108.725 Y105.552
G0 X108.737 Y107.013
G0 X109.95 Y107.025
G0 X109.95 Y106.83
G11
G1 F1800 X109.95 Y116.17 E21.2574
G10
G0 F3600 X109.95 Y115.975
G0 X111.416 Y115.975
G0 X111.416 Y116.17
G11
G1 F1800 X111.416 Y106.83 E21.60671
G10
G0 F3600 X111.416 Y107.025
G0 X112.882 Y107.025
G0 X112.882 Y106.83
G11
G1 F1800 X112.882 Y116.17 E21.95603
G10
G0 F3600 X112.882 Y115.975
G0 X114.348 Y115.975
G0 X114.348 Y116.17
G11
G1 F1800 X114.348 Y106.83 E22.30535
G10
G0 F3600 X114.348 Y107.025
G0 X115.814 Y107.025
G0 X115.814 Y106.83
G11
G1 F1800 X115.814 Y116.17 E22.65466
G10
G0 F3600 X115.987 Y115.987
G0 X116.17 Y115.814
G11
G1 F1800 X105.08 Y115.814 E23.06943
G10
G0 F3600 X105.275 Y115.814
G0 X105.275 Y114.348
G0 X105.08 Y114.348
G11
G1 F1800 X116.17 Y114.348 E23.48419
G10
G0 F3600 X115.975 Y114.348
G0 X115.975 Y112.882
G0 X116.17 Y112.882
G11
G1 F1800 X105.08 Y112.882 E23.89896
G10
G0 F3600 X105.275 Y112.882
G0 X105.275 Y111.416
G0 X105.08 Y111.416
G11
G1 F1800 X116.17 Y111.416 E24.31373
G10
G0 F3600 X115.975 Y111.416
G0 X115.975 Y109.95
G0 X116.17 Y109.95
G11
G1 F1800 X105.08 Y109.95 E24.72849
G10
G0 F3600 X105.275 Y109.95
G0 X105.275 Y108.484
G0 X105.08 Y108.484
G11
G1 F1800 X116.17 Y108.484 E25.14326
G10
G0 F3600 X115.975 Y108.484
G0 X115.975 Y107.018
G0 X116.17 Y107.018
G11
G1 F1800 X105.08 Y107.018 E25.55802
G10
G0 F3600 X105.275 Y107.018
G0 X105.263 Y95.987
G0 X100.987 Y95.987
G0 X100.987 Y100.987
G0 X101.154 Y101.17
G11
G1 F1800 X101.154 Y96.508 E25.73238
G0 F3600 X101.17 Y96.756
G1 F1800 X96.535 Y96.756 E25.90573
G0 F3600 X96.756 Y96.535
G1 F1800 X96.756 Y101.17 E26.07908
G0 F3600 X96.509 Y101.154
G1 F1800 X101.17 Y101.154 E26.2534
G10
G0 F3600 X100.987 Y100.987
G0 X100.975 Y99.688
G0 X101.17 Y99.688
G11
G1 F1800 X96.535 Y99.688 E26.42675
G0 F3600 X96.535 Y98.222
G1 F1800 X101.17 Y98.222 E26.6001
G10
G0 F3600 X100.975 Y98.222
G0 X99.688 Y96.535
G11
G1 F1800 X99.688 Y101.17 E26.77345
G10
G0 F3600 X99.688 Y100.975
G0 X98.222 Y100.975
G0 X98.222 Y101.17
G11
G1 F1800 X98.222 Y96.535 E26.9468
G10
G0 F3600 X100.987 Y95.987
G0 X105.263 Y95.987
G0 X105.275 Y117.28
G0 X105.08 Y117.28
G11
G1 F1800 X108.92 Y117.28 E27.09041
G10
G0 F3600 X108.725 Y117.28
G0 X108.725 Y118.746
G0 X108.92 Y118.746
G11
G1 F1800 X105.08 Y118.746 E27.23403
G10
G0 F3600 X105.275 Y118.746
G0 X105.275 Y120.212
G0 X105.079 Y120.212
G11
G1 F1800 X108.919 Y120.212 E27.37765
G10
G0 F3600 X108.725 Y120.212
G0 X108.725 Y121.678
G0 X108.919 Y121.678
G11
G1 F1800 X105.079 Y121.678 E27.52126
G10
G0 F3600 X105.275 Y121.678
G0 X105.275 Y123.144
G0 X105.079 Y123.144
G11
G1 F1800 X108.919 Y123.144 E27.66488
G10
G0 F3600 X108.725 Y123.144
G0 X108.725 Y124.61
G0 X108.919 Y124.61
G11
G1 F1800 X105.079 Y124.61 E27.80849
G10
G0 F3600 X105.275 Y124.61
G0 X108.737 Y127.013
G0 X122.013 Y127.013
G0 X127.013 Y122.013
G0 X127.013 Y100.987
G0 X122.013 Y100.987
G0 X121.72 Y101.28
G11
G1 F1800 X121.72 Y96.355 E27.99269
G1 X121.738 Y96.355 E27.99336
G1 X121.945 Y96.425 E28.00153
G1 X126.575 Y96.425 E28.1747
G1 X126.575 Y101.055 E28.34786
G1 X126.645 Y101.262 E28.35603
G1 X126.645 Y101.28 E28.3567
G1 X121.72 Y101.28 E28.5409
G0 F3600 X121.83 Y101.154
G1 F1800 X126.493 Y101.154 E28.7153
G0 F3600 X126.076 Y101.17
G1 F1800 X126.076 Y96.535 E28.88864
G0 F3600 X126.465 Y96.756
G1 F1800 X121.83 Y96.756 E29.06199
G10
G0 F3600 X122.025 Y96.756
G0 X123.144 Y96.535
G11
G1 F1800 X123.144 Y101.17 E29.23534
G10
G0 F3600 X123.144 Y100.975
G0 X124.61 Y100.975
G0 X124.61 Y101.17
G11
G1 F1800 X124.61 Y96.535 E29.40869
G0 F3600 X126.465 Y98.222
G1 F1800 X121.83 Y98.222 E29.58204
G10
G0 F3600 X122.025 Y98.222
G0 X122.025 Y99.688
G0 X121.83 Y99.688
G11
G1 F1800 X126.465 Y99.688 E29.75539
G10
G0 F3600 X127.013 Y100.987
G0 X127.025 Y121.738
G0 X126.645 Y121.738
G11
G1 F1800 X126.575 Y121.945 E29.76356
G1 X126.575 Y126.575 E29.93672
G1 X121.945 Y126.575 E30.10989
G1 X121.738 Y126.645 E30.11806
G1 X121.72 Y126.645 E30.11873
G1 X121.72 Y121.72 E30.30293
G1 X126.645 Y121.72 E30.48712
G1 X126.645 Y121.738 E30.48779
G10
G0 F3600 X126.645 Y122.025
G0 X126.076 Y122.025
G0 X126.076 Y121.83
G11
G1 F1800 X126.076 Y126.465 E30.66114
G0 F3600 X126.464 Y126.076
G1 F1800 X121.829 Y126.076 E30.83449
G10
G0 F3600 X122.025 Y126.076
G0 X123.144 Y126.465
G11
G1 F1800 X123.144 Y121.83 E31.00784
G10
G0 F3600 X123.144 Y122.025
G0 X124.61 Y122.025
G0 X124.61 Y121.83
G11
G1 F1800 X124.61 Y126.465 E31.18119
G0 F3600 X126.464 Y124.61
G1 F1800 X121.829 Y124.61 E31.35454
G10
G0 F3600 X122.025 Y124.61
G0 X122.025 Y123.144
G0 X121.829 Y123.144
G11
G1 F1800 X126.464 Y123.144 E31.52789
G10
G0 F3600 X122.013 Y127.013
G0 X108.737 Y127.013
G0 X105.275 Y123.144
G0 X104.4 Y123.144
G0 X103.98 Y125.73
;TYPE:WALL-INNER
G11
G1 F1800 X102.27 Y125.73 E31.59184
G1 X102.27 Y120.73 E31.77884
G1 X97.27 Y120.73 E31.96584
G1 X97.27 Y102.27 E32.65625
G1 X102.27 Y102.27 E32.84325
G1 X102.27 Y97.27 E33.03025
G1 X103.98 Y97.27 E33.0942
G1 X103.98 Y125.73 E34.1586
G0 F3600 X104.2 Y125.95
G1 F1800 X102.05 Y125.95 E34.23901
G1 X102.05 Y120.95 E34.42601
G1 X97.05 Y120.95 E34.61301
G1 X97.05 Y102.05 E35.31987
G1 X102.05 Y102.05 E35.50687
G1 X102.05 Y97.05 E35.69387
G1 X104.2 Y97.05 E35.77428
G1 X104.2 Y125.95 E36.85514
G0 F3600 X104.42 Y126.17
G1 F1800 X101.83 Y126.17 E36.95201
G1 X101.83 Y121.17 E37.13901
G1 X96.83 Y121.17 E37.32601
G1 X96.83 Y101.83 E38.04933
G1 X101.83 Y101.83 E38.23633
G1 X101.83 Y96.83 E38.42333
G1 X104.42 Y96.83 E38.52019
G1 X104.42 Y126.17 E39.61751
G0 F3600 X104.625 Y126.375
;TYPE:WALL-OUTER
G1 F1800 X101.625 Y126.375 E39.72971
G1 X101.625 Y121.375 E39.91671
G1 X96.625 Y121.375 E40.10371
G1 X96.625 Y101.625 E40.84236
G1 X101.625 Y101.625 E41.02936
G1 X101.625 Y96.625 E41.21636
G1 X104.625 Y96.625 E41.32856
G1 X104.625 Y126.375 E42.44121
G0 F3600 X104.5 Y126.375
G0 X104.35 Y126.1
G0 X103.851 Y125.63
;TYPE:SKIN
G1 F1800 X102.368 Y124.147 E42.51965
G1 X102.33 Y124.109
G0 F3600 X102.368 Y123.836
G1 F1800 X103.881 Y125.348 E42.59965
G1 X103.919 Y125.386
G0 F3600 X103.881 Y125.037
G1 F1800 X102.368 Y123.525 E42.67964
G1 X102.33 Y123.487
G0 F3600 X102.368 Y123.214
G1 F1800 X103.881 Y124.726 E42.75964
G1 X103.919 Y124.764
G0 F3600 X103.881 Y124.415
G1 F1800 X102.368 Y122.902 E42.83967
G1 X102.33 Y122.864
G0 F3600 X102.368 Y122.591
G1 F1800 X103.881 Y124.104 E42.91969
G1 X103.919 Y124.142
G0 F3600 X103.881 Y123.793
G1 F1800 X102.368 Y122.28 E42.99972
G1 X102.33 Y122.242
G0 F3600 X102.368 Y121.969
G1 F1800 X103.881 Y123.482 E43.07974
G1 X103.919 Y123.52
G0 F3600 X103.881 Y123.17
G1 F1800 X102.368 Y121.658 E43.15974
G1 X102.33 Y121.62
G0 F3600 X102.368 Y121.347
G1 F1800 X103.881 Y122.859 E43.23974
G1 X103.919 Y122.897
G0 F3600 X103.881 Y122.548
G1 F1800 X102.368 Y121.036 E43.31974
G1 X102.33 Y120.998
G0 F3600 X102.368 Y120.725
G1 F1800 X103.881 Y122.237 E43.39974
G1 X103.919 Y122.275
G0 F3600 X103.881 Y121.926
G1 F1800 X97.369 Y115.414 E43.74417
G1 X97.331 Y115.376
G0 F3600 X97.369 Y115.103
G1 F1800 X103.881 Y121.615 E44.0886
G1 X103.919 Y121.653
G0 F3600 X103.881 Y121.304
G1 F1800 X97.369 Y114.792 E44.43303
G1 X97.331 Y114.754
G0 F3600 X97.369 Y114.481
G1 F1800 X103.881 Y120.993 E44.77746
G1 X103.919 Y121.031
G0 F3600 X103.881 Y120.681
G1 F1800 X97.369 Y114.17 E45.12186
G1 X97.331 Y114.132
G0 F3600 X97.369 Y113.859
G1 F1800 X103.881 Y120.37 E45.46626
G1 X103.919 Y120.408
G0 F3600 X103.881 Y120.059
G1 F1800 X97.369 Y113.547 E45.81069
G1 X97.331 Y113.509
G0 F3600 X97.369 Y113.236
G1 F1800 X103.881 Y119.748 E46.15512
G1 X103.919 Y119.786
G0 F3600 X103.881 Y119.437
G1 F1800 X97.369 Y112.925 E46.49955
G1 X97.331 Y112.887
G0 F3600 X97.369 Y112.614
G1 F1800 X103.881 Y119.126 E46.84398
G1 X103.919 Y119.164
G0 F3600 X103.881 Y118.815
G1 F1800 X97.369 Y112.303 E47.18841
G1 X97.331 Y112.265
G0 F3600 X97.369 Y111.992
G1 F1800 X103.881 Y118.504 E47.53284
G1 X103.919 Y118.542
G0 F3600 X103.881 Y118.192
G1 F1800 X97.369 Y111.681 E47.87725
G1 X97.331 Y111.643
G0 F3600 X97.369 Y111.37
G1 F1800 X103.881 Y117.881 E48.22165
G1 X103.919 Y117.919
G0 F3600 X103.881 Y117.57
G1 F1800 X97.369 Y111.058 E48.56608
G1 X97.331 Y111.02
G0 F3600 X97.369 Y110.747
G1 F1800 X103.881 Y117.259 E48.91051
G1 X103.919 Y117.297
G0 F3600 X103.881 Y116.948
G1 F1800 X97.369 Y110.436 E49.25494
G1 X97.331 Y110.398
G0 F3600 X97.369 Y110.125
G1 F1800 X103.881 Y116.637 E49.59937
G1 X103.919 Y116.675
G0 F3600 X103.881 Y116.326
G1 F1800 X97.369 Y109.814 E49.9438
G1 X97.331 Y109.776
G0 F3600 X97.369 Y109.503
G1 F1800 X103.881 Y116.015 E50.28823
G1 X103.919 Y116.053
G0 F3600 X103.881 Y115.703
G1 F1800 X97.369 Y109.192 E50.63263
G1 X97.331 Y109.154
G0 F3600 X97.369 Y108.881
G1 F1800 X103.881 Y115.392 E50.97704
G1 X103.919 Y115.43
G0 F3600 X103.881 Y115.081
G1 F1800 X97.369 Y108.569 E51.32147
G1 X97.331 Y108.531
G0 F3600 X97.369 Y108.258
G1 F1800 X103.881 Y114.77 E51.6659
G1 X103.919 Y114.808
G0 F3600 X103.881 Y114.459
G1 F1800 X97.369 Y107.947 E52.01033
G1 X97.331 Y107.909
G0 F3600 X97.369 Y107.636
G1 F1800 X103.881 Y114.148 E52.35476
G1 X103.919 Y114.186
G0 F3600 X103.881 Y113.837
G1 F1800 X97.369 Y107.325 E52.69919
G1 X97.331 Y107.287
G0 F3600 X97.369 Y107.014
G1 F1800 X103.881 Y113.525 E53.04359
G1 X103.919 Y113.563
G0 F3600 X103.881 Y113.214
G1 F1800 X97.369 Y106.703 E53.388
G1 X97.331 Y106.665
G0 F3600 X97.369 Y106.391
